!!!!SEGMENT: pl-cz--ii-129--004_kozllowski-jozef--requiem-judex-ergo.krn
!!!cenid: 18xx:927
!!!COM: Kozłowski, Józef
!!!COM-rismID: pe30003850
!!!CDT: 1757-1831
!!!CNT: Polish
!!!OPR: Requiem
!!!OTL: Judex ergo
!!!OMV: 004
!!!PDT:
!!!AGN: Sacred; Requiem
!!!SMS-siglum: PL-CZ
!!!SMS-shelfmark: II-129
!!!SMS-shelfwork: 001-004 M
!!!SMS-variant:
!!!SMS-altvar:
!!!NIFC-rismSourceID: 300000626
!!!NIFC-islandoraID: pl-cz:32191
!!!URL-pdf-islandora: https://repozytorium.nifc.pl/islandora/object/pl-cz%3A32191/datastream/PDF/view
!!!URL-scan:
!!!ONB-nifc: UWAGA: części Requiem: Requiem, Dies irae, Tuba mirrum, Judex ergo, Confutatis, Lacrimosa, Offertorium, Sanctus, O rex intende hostias, Agnus Dei, Quia pius es, Requiem, Salve Regina
!!!AIN: 1 clars 14 empty 2 fagot 2 flt 1 oboe 2 tenor 2 tromt 1 violn
!!!key: c
**kern	**dynam	**kern	**kern	**kern	**kern	**dynam	**kern	**dynam	**kern	**kern	**kern	**text	**kern	**dynam	**kern	**kern	**kern	**kern	**kern	**kern	**dynam	**kern	**dynam	**kern	**kern	**kern	**dynam	**kern	**dynam	**kern	**kern	**kern	**kern
*part25	*part25	*part24	*part23	*part22	*part21	*part21	*part20	*part20	*part19	*part18	*part17	*part17	*part16	*part16	*part15	*part14	*part13	*part12	*part11	*part10	*part10	*part9	*part9	*part8	*part7	*part6	*part6	*part5	*part5	*part4	*part3	*part2	*part1
*staff25	*	*staff24	*staff23	*staff22	*staff21	*	*staff20	*	*staff19	*staff18	*staff17	*staff17	*staff16	*	*staff15	*staff14	*staff13	*staff12	*staff11	*staff10	*	*staff9	*	*staff8	*staff7	*staff6	*	*staff5	*	*staff4	*staff3	*staff2	*staff1
*Iempty	*	*Iempty	*Iempty	*Iempty	*Ivioln	*	*Iempty	*	*Iempty	*Itenor	*Iempty	*	*Iempty	*	*Itromt	*Itenor	*Itromt	*Iempty	*Iempty	*Iempty	*	*Iempty	*	*Ifagot	*Ifagot	*Iempty	*	*Iclars	*	*Iempty	*Ioboe	*Iflt	*Iflt
*I"Baſso.	*	*I"Viollonʒello.	*I"ViolaAlto Viola.	*I"Alto Viola Solo. Ima	*I"Violino 2.do	*	*I"Violino I.mo	*	*I"Baſso.	*I"Tenore.	*I"Soprano 1.mo	*	*I"Timpani in Es.	*	*I"Trombone Baſso.	*I"Trombone Tenore	*I"Trombone Alto	*I"Tromba IIdo in Es.	*I"Tromba Imo in Es.	*I"Corno Secundo. in Es.	*	*I"Corno Imo in Es.	*	*I"Fagotto IIdo	*I"Fagotto 1mo	*I"Clarinetto Secundo. in B	*	*I"Clarinetto Primo in B	*	*I"Oboe Secundo. in B	*I"Oboe Primo	*I"Flauto Secundo.	*I"Flauto Primo
*I'cb	*	*I'vlc.	*I'a-vla	*I'a-vla Solo Ima	*I'Vl II	*	*I'Vl I	*	*I'B.	*I'T.	*I'S. I	*	*I'Timp	*	*I'Trb III	*I'Trb II	*I'Trb I	*I'Tr II	*I'Tr I	*I'Cor II	*	*I'Cor I	*	*I'Fag II	*I'Fag I	*I'Cl II	*	*I'Cl I	*	*I'ob II	*I'ob I	*I'fl II	*I'fl I
*ICstr	*	*ICstr	*ICstr	*ICstr	*ICstr	*	*ICstr	*	*ICvox	*ICvox	*ICvox	*	*ICidio	*	*ICbras	*ICbras	*ICbras	*ICbras	*ICbras	*ICbras	*	*ICbras	*	*ICww	*ICww	*ICww	*	*ICww	*	*ICww	*ICwwICww	*ICww	*ICww
*clefF4	*	*clefF4	*clefC3	*clefC3	*clefG2	*	*clefG2	*	*clefF4	*clefGv2	*clefC1	*	*clefF4	*	*clefF4	*clefF4	*clefC3	*clefG2	*clefG2	*clefG2	*	*clefG2	*	*clefF4	*clefF4	*clefG2	*	*clefG2	*	*clefG2	*clefG2	*clefG2	*clefG2
*ITrd0c0	*	*	*	*	*	*	*	*	*	*	*	*	*	*	*	*	*	*ITrd-2c-3	*ITrd-2c-3	*ITrd5c9	*	*ITrd5c9	*	*	*	*ITrd1c2	*	*ITrd1c2	*	*	*	*	*
*k[b-e-a-]	*	*k[b-e-a-]	*k[b-e-a-]	*k[b-e-a-]	*k[b-e-a-]	*	*k[b-e-a-]	*	*k[b-e-a-]	*k[b-e-a-]	*k[b-e-a-]	*	*k[b-e-a-]	*	*k[b-e-a-]	*k[b-e-a-]	*k[b-e-a-]	*k[b-e-a-]	*k[b-e-a-]	*k[b-e-a-]	*	*k[b-e-a-]	*	*k[b-e-a-]	*k[b-e-a-]	*k[b-e-a-]	*	*k[b-e-a-]	*	*k[b-e-a-]	*k[b-e-a-]	*k[b-e-a-]	*k[b-e-a-]
*c:	*	*c:	*c:	*c:	*c:	*	*c:	*	*c:	*c:	*c:	*	*c:	*	*c:	*c:	*c:	*c:	*c:	*c:	*	*c:	*	*c:	*c:	*c:	*	*c:	*	*c:	*c:	*c:	*c:
*M3/4	*	*M3/4	*M3/4	*M3/4	*M3/4	*	*M3/4	*	*M3/4	*M3/4	*M3/4	*	*M3/4	*	*M3/4	*M3/4	*M3/4	*M3/4	*M3/4	*M3/4	*	*M3/4	*	*M3/4	*M3/4	*M3/4	*	*M3/4	*	*M3/4	*M3/4	*M3/4	*M3/4
*	*	*	*	*	*	*	*	*below	*	*	*	*	*	*	*	*	*	*	*	*	*	*	*	*	*	*	*	*	*	*	*	*	*
=1	=1	=1	=1	=1	=1	=1	=1	=1	=1	=1	=1	=1	=1	=1	=1	=1	=1	=1	=1	=1	=1	=1	=1	=1	=1	=1	=1	=1	=1	=1	=1	=1	=1
!LO:TX:a:t=pizzicato	!	!	!	!	!	!	!	!	!	!	!	!	!	!	!	!	!	!	!	!	!	!	!	!	!	!	!	!	!	!	!	!	!
!LO:TX:t=P:p=po:global:problem	!	!	!LO:TX:a:rj:t=Larghetto	!	!	!	!LO:TX:a:rj:t=Larghetto.	!	!	!	!LO:TX:a:rj:t=Larghietto	!	!LO:TX:a:t=43.	!	!	!	!	!	!	!	!	!LO:TX:b:t=17.	!	!	!	!LO:TX:a:t=27.	!	!LO:TX:a:t=27.	!	!	!	!	!
!LO:TX:a:rj:t=Larghetto	!LO:DY:t=po	!LO:TX:a:rj:t=Larghetto.	!LO:TX:a:t=1.	!LO:TX:a:rj:t=Larghetto	!LO:TX:a:t=1.	!	!LO:TX:a:t=1.	!	!LO:TX:a:t=Judex Ergo Tacet	!LO:TX:a:t=Judex Ergo Tacet	!LO:TX:a:t=10.	!	!LO:TX:a:t=Lrghetto	!	!LO:TX:a:t=Judex Ergo Tacet	!LO:TX:a:t=Judex Ergo Tacet	!LO:TX:a:t=Judex Ergo Tacet	!LO:TX:a:t=Judex Ergo Tacet	!LO:TX:a:t=Judex Ergo Tacet	!LO:TX:a:t=17.	!	!LO:TX:a:t=Larghetto	!	!LO:TX:a:t=Judex Ergo Tacet	!LO:TX:a:t=Judex Ergo Tacet	!LO:TX:a:t=Largetto.	!	!LO:TX:a:t=Largeto in B.	!	!LO:TX:a:t=Judex Ergo Tacet	!LO:TX:a:t=Judex Ergo Tacet	!LO:TX:a:t=Judex Ergo Tacet	!LO:TX:a:t=Judex Ergo Tacet
8C/	p	8C/	2.r	4.cc\	2.r	.	2.r	.	2.ryy	2.ryy	0.r	.	2.r	.	2.ryy	2.ryy	2.ryy	2.ryy	2.ryy	2.r	.	2.r	.	2.ryy	2.ryy	2.r	.	2.r	.	2.ryy	2.ryy	2.ryy	2.ryy
8r	.	8r	.	.	.	.	.	.	.	.	.	.	.	.	.	.	.	.	.	.	.	.	.	.	.	.	.	.	.	.	.	.	.
8C/	.	8C/	.	.	.	.	.	.	.	.	.	.	.	.	.	.	.	.	.	.	.	.	.	.	.	.	.	.	.	.	.	.	.
8r	.	8r	.	(8g\L	.	.	.	.	.	.	.	.	.	.	.	.	.	.	.	.	.	.	.	.	.	.	.	.	.	.	.	.	.
8C/	.	8C/	.	8cc\	.	.	.	.	.	.	.	.	.	.	.	.	.	.	.	.	.	.	.	.	.	.	.	.	.	.	.	.	.
8r	.	8r	.	8ee-\J)	.	.	.	.	.	.	.	.	.	.	.	.	.	.	.	.	.	.	.	.	.	.	.	.	.	.	.	.	.
=2	=2	=2	=2	=2	=2	=2	=2	=2	=2	=2	=2	=2	=2	=2	=2	=2	=2	=2	=2	=2	=2	=2	=2	=2	=2	=2	=2	=2	=2	=2	=2	=2	=2
4G\	.	4G\	4r	4ee-\	4r	.	4r	.	2.ryy	2.ryy	.	.	2.r	.	2.ryy	2.ryy	2.ryy	2.ryy	2.ryy	2.r	.	2.r	.	2.ryy	2.ryy	2.r	.	2.r	.	2.ryy	2.ryy	2.ryy	2.ryy
16.r	.	16.r	16.r	8dd\	16.r	.	16.r	.	.	.	.	.	.	.	.	.	.	.	.	.	.	.	.	.	.	.	.	.	.	.	.	.	.
*	*	*	*	*	*	*	*	*below	*	*	*	*	*	*	*	*	*	*	*	*	*	*	*	*	*	*	*	*	*	*	*	*	*
!LO:TX:a:t=Collarco	!	!	!	!	!	!LO:DY:rj	!	!	!	!	!	!	!	!	!	!	!	!	!	!	!	!	!	!	!	!	!	!	!	!	!	!	!
32G\KLL	f	32G\KLL	32g\KLL	.	32g/KLL	f	32g/KLL	f	.	.	.	.	.	.	.	.	.	.	.	.	.	.	.	.	.	.	.	.	.	.	.	.	.
16.F#X\	.	16.F#X\	16.f#X\	8r	16.f#X/	.	16.f#X/	.	.	.	.	.	.	.	.	.	.	.	.	.	.	.	.	.	.	.	.	.	.	.	.	.	.
32G\JJk	.	32G\JJk	32g\JJk	.	32g/JJk	.	32g/JJk	.	.	.	.	.	.	.	.	.	.	.	.	.	.	.	.	.	.	.	.	.	.	.	.	.	.
16.D\LL	.	16D/LL	16.d\LL	4r	16.d/LL	.	16.d/LL	.	.	.	.	.	.	.	.	.	.	.	.	.	.	.	.	.	.	.	.	.	.	.	.	.	.
.	.	16G/	.	.	.	.	.	.	.	.	.	.	.	.	.	.	.	.	.	.	.	.	.	.	.	.	.	.	.	.	.	.	.
32G\K	.	.	32g\K	.	32g/K	.	32g/K	.	.	.	.	.	.	.	.	.	.	.	.	.	.	.	.	.	.	.	.	.	.	.	.	.	.
16.BBn\	.	16BBn/	16.Bn\	.	16.Bn/	.	16.Bn/	.	.	.	.	.	.	.	.	.	.	.	.	.	.	.	.	.	.	.	.	.	.	.	.	.	.
.	.	16D/JJ	.	.	.	.	.	.	.	.	.	.	.	.	.	.	.	.	.	.	.	.	.	.	.	.	.	.	.	.	.	.	.
32D\JJk	.	.	32d\JJk	.	32d/JJk	.	32d/JJk	.	.	.	.	.	.	.	.	.	.	.	.	.	.	.	.	.	.	.	.	.	.	.	.	.	.
=3	=3	=3	=3	=3	=3	=3	=3	=3	=3	=3	=3	=3	=3	=3	=3	=3	=3	=3	=3	=3	=3	=3	=3	=3	=3	=3	=3	=3	=3	=3	=3	=3	=3
!LO:TX:a:t=pizzicato	!LO:DY:t=po	!	!	!	!	!	!	!	!	!	!	!	!	!	!	!	!	!	!	!	!	!	!	!	!	!	!	!	!	!	!	!	!
8GG/	p	8GG/	4G/	4.dd\	4G/	.	4G/	.	2.ryy	2.ryy	.	.	2.r	.	2.ryy	2.ryy	2.ryy	2.ryy	2.ryy	2.r	.	2.r	.	2.ryy	2.ryy	2.r	.	2.r	.	2.ryy	2.ryy	2.ryy	2.ryy
8r	.	8r	.	.	.	.	.	.	.	.	.	.	.	.	.	.	.	.	.	.	.	.	.	.	.	.	.	.	.	.	.	.	.
8G\	.	8G\	4r	.	4r	.	4r	.	.	.	.	.	.	.	.	.	.	.	.	.	.	.	.	.	.	.	.	.	.	.	.	.	.
8r	.	8r	.	8bn\L	.	.	.	.	.	.	.	.	.	.	.	.	.	.	.	.	.	.	.	.	.	.	.	.	.	.	.	.	.
8GG/	.	8GG/	4r	8dd\	4r	.	4r	.	.	.	.	.	.	.	.	.	.	.	.	.	.	.	.	.	.	.	.	.	.	.	.	.	.
8r	.	8r	.	8ff\J	.	.	.	.	.	.	.	.	.	.	.	.	.	.	.	.	.	.	.	.	.	.	.	.	.	.	.	.	.
!LO:LB:g=original	!	!	!	!	!	!	!	!	!	!	!	!	!	!	!	!	!	!	!	!	!	!	!	!	!	!	!	!	!	!	!	!	!
=4	=4	=4	=4	=4	=4	=4	=4	=4	=4	=4	=4	=4	=4	=4	=4	=4	=4	=4	=4	=4	=4	=4	=4	=4	=4	=4	=4	=4	=4	=4	=4	=4	=4
4C/	.	4C/	[4G/	(4ff\	(4d/	.	(4f/	.	2.ryy	2.ryy	.	.	2.r	.	2.ryy	2.ryy	2.ryy	2.ryy	2.ryy	2.r	.	2.r	.	2.ryy	2.ryy	2.r	.	2.r	.	2.ryy	2.ryy	2.ryy	2.ryy
8c\	.	8c\	8G/]	8ee-\L)	8c/)	.	8e-/)	.	.	.	.	.	.	.	.	.	.	.	.	.	.	.	.	.	.	.	.	.	.	.	.	.	.
8r	.	8r	8r	(8ee-\	8r	.	8r	.	.	.	.	.	.	.	.	.	.	.	.	.	.	.	.	.	.	.	.	.	.	.	.	.	.
4r	.	4r	4r	8ff\	4r	.	4r	.	.	.	.	.	.	.	.	.	.	.	.	.	.	.	.	.	.	.	.	.	.	.	.	.	.
.	.	.	.	8gg\J)	.	.	.	.	.	.	.	.	.	.	.	.	.	.	.	.	.	.	.	.	.	.	.	.	.	.	.	.	.
!	!	!LO:LB:g=original	!LO:LB:g=original	!LO:LB:g=original	!LO:LB:g=original	!	!LO:LB:g=original	!	!	!	!	!	!	!	!	!	!	!	!	!	!	!	!	!	!	!	!	!	!	!	!	!	!
=5	=5	=5	=5	=5	=5	=5	=5	=5	=5	=5	=5	=5	=5	=5	=5	=5	=5	=5	=5	=5	=5	=5	=5	=5	=5	=5	=5	=5	=5	=5	=5	=5	=5
8Bn\	.	8Bn\	8r	4.aa-\	8r	.	8r	.	2.ryy	2.ryy	0.r	.	2.r	.	2.ryy	2.ryy	2.ryy	2.ryy	2.ryy	2.r	.	2.r	.	2.ryy	2.ryy	2.r	.	2.r	.	2.ryy	2.ryy	2.ryy	2.ryy
8r	.	8r	8Bn/L	.	8f/L	.	8a-/L	.	.	.	.	.	.	.	.	.	.	.	.	.	.	.	.	.	.	.	.	.	.	.	.	.	.
8B\	.	8B\	8B/J	.	8f/J	.	8a-/J	.	.	.	.	.	.	.	.	.	.	.	.	.	.	.	.	.	.	.	.	.	.	.	.	.	.
8r	.	8r	8r	16gg\LL	8r	.	8r	.	.	.	.	.	.	.	.	.	.	.	.	.	.	.	.	.	.	.	.	.	.	.	.	.	.
.	.	.	.	16ff\JJ	.	.	.	.	.	.	.	.	.	.	.	.	.	.	.	.	.	.	.	.	.	.	.	.	.	.	.	.	.
8B\	.	8B\	4r	8ff\L	4r	.	4r	.	.	.	.	.	.	.	.	.	.	.	.	.	.	.	.	.	.	.	.	.	.	.	.	.	.
8r	.	8r	.	8ff\J	.	.	.	.	.	.	.	.	.	.	.	.	.	.	.	.	.	.	.	.	.	.	.	.	.	.	.	.	.
=6	=6	=6	=6	=6	=6	=6	=6	=6	=6	=6	=6	=6	=6	=6	=6	=6	=6	=6	=6	=6	=6	=6	=6	=6	=6	=6	=6	=6	=6	=6	=6	=6	=6
8c\	.	8c\	8r	4.gg\	8r	.	8r	.	2.ryy	2.ryy	.	.	2.r	.	2.ryy	2.ryy	2.ryy	2.ryy	2.ryy	2.r	.	2.r	.	2.ryy	2.ryy	2.r	.	2.r	.	2.ryy	2.ryy	2.ryy	2.ryy
8r	.	8r	8c\L	.	8e-/L	.	8g/L	.	.	.	.	.	.	.	.	.	.	.	.	.	.	.	.	.	.	.	.	.	.	.	.	.	.
8c\	.	8c\	8c\J	.	8e-/J	.	8g/J	.	.	.	.	.	.	.	.	.	.	.	.	.	.	.	.	.	.	.	.	.	.	.	.	.	.
8r	.	8r	8r	16ff\LL	8r	.	8r	.	.	.	.	.	.	.	.	.	.	.	.	.	.	.	.	.	.	.	.	.	.	.	.	.	.
.	.	.	.	16ee-\JJ	.	.	.	.	.	.	.	.	.	.	.	.	.	.	.	.	.	.	.	.	.	.	.	.	.	.	.	.	.
8E-\	.	8E-\	4r	8ee-\L	4r	.	4r	.	.	.	.	.	.	.	.	.	.	.	.	.	.	.	.	.	.	.	.	.	.	.	.	.	.
8r	.	8r	.	8ee-\J	.	.	.	.	.	.	.	.	.	.	.	.	.	.	.	.	.	.	.	.	.	.	.	.	.	.	.	.	.
=7	=7	=7	=7	=7	=7	=7	=7	=7	=7	=7	=7	=7	=7	=7	=7	=7	=7	=7	=7	=7	=7	=7	=7	=7	=7	=7	=7	=7	=7	=7	=7	=7	=7
8F\	.	8F\	8r	16ee-\LL	8r	.	8r	.	2.ryy	2.ryy	.	.	2.r	.	2.ryy	2.ryy	2.ryy	2.ryy	2.ryy	2.r	.	2.r	.	2.ryy	2.ryy	2.r	.	2.r	.	2.ryy	2.ryy	2.ryy	2.ryy
.	.	.	.	16dd\	.	.	.	.	.	.	.	.	.	.	.	.	.	.	.	.	.	.	.	.	.	.	.	.	.	.	.	.	.
8r	.	8r	8A-/	16ff\	8d/	.	8f/	.	.	.	.	.	.	.	.	.	.	.	.	.	.	.	.	.	.	.	.	.	.	.	.	.	.
.	.	.	.	16dd\JJ	.	.	.	.	.	.	.	.	.	.	.	.	.	.	.	.	.	.	.	.	.	.	.	.	.	.	.	.	.
8G\	.	8G\	8r	4cc\	8r	.	8r	.	.	.	.	.	.	.	.	.	.	.	.	.	.	.	.	.	.	.	.	.	.	.	.	.	.
8r	.	8r	8G/	.	8c/	.	8e-/	.	.	.	.	.	.	.	.	.	.	.	.	.	.	.	.	.	.	.	.	.	.	.	.	.	.
8GG/	.	8GG/	8r	4bnt\	8r	.	8r	.	.	.	.	.	.	.	.	.	.	.	.	.	.	.	.	.	.	.	.	.	.	.	.	.	.
8r	.	8r	8F/	.	8Bn/	.	8d/	.	.	.	.	.	.	.	.	.	.	.	.	.	.	.	.	.	.	.	.	.	.	.	.	.	.
=8	=8	=8	=8	=8	=8	=8	=8	=8	=8	=8	=8	=8	=8	=8	=8	=8	=8	=8	=8	=8	=8	=8	=8	=8	=8	=8	=8	=8	=8	=8	=8	=8	=8
!LO:TX:a:t=Col Arco	!LO:DY:t=of	!	!	!	!	!	!	!	!	!	!	!	!	!	!	!	!	!	!	!	!	!	!	!	!	!	!	!	!	!	!	!	!
(2BBn/	f	2BBn/	2Bn/	4.gg\	8r	.	8r	.	2.ryy	2.ryy	.	.	2.r	.	2.ryy	2.ryy	2.ryy	2.ryy	2.ryy	2.r	.	2.r	.	2.ryy	2.ryy	2.r	.	2.r	.	2.ryy	2.ryy	2.ryy	2.ryy
.	.	.	.	.	8d/L	.	8f/L 8G/	.	.	.	.	.	.	.	.	.	.	.	.	.	.	.	.	.	.	.	.	.	.	.	.	.	.
.	.	.	.	.	8d/	.	8f/ 8G/	.	.	.	.	.	.	.	.	.	.	.	.	.	.	.	.	.	.	.	.	.	.	.	.	.	.
.	.	.	.	16ff\LL	8d/J	.	8f/J 8G/	.	.	.	.	.	.	.	.	.	.	.	.	.	.	.	.	.	.	.	.	.	.	.	.	.	.
.	.	.	.	16ee-\JJ	.	.	.	.	.	.	.	.	.	.	.	.	.	.	.	.	.	.	.	.	.	.	.	.	.	.	.	.	.
4C/)	.	4C/	4c/	8ee-\L	4c/	.	4e-/ 4G/	.	.	.	.	.	.	.	.	.	.	.	.	.	.	.	.	.	.	.	.	.	.	.	.	.	.
.	.	.	.	8ee-\J	.	.	.	.	.	.	.	.	.	.	.	.	.	.	.	.	.	.	.	.	.	.	.	.	.	.	.	.	.
!LO:LB:g=original	!	!	!	!	!	!	!	!	!	!	!	!	!	!	!	!	!	!	!	!	!	!	!	!	!	!	!	!	!	!	!	!	!
=9	=9	=9	=9	=9	=9	=9	=9	=9	=9	=9	=9	=9	=9	=9	=9	=9	=9	=9	=9	=9	=9	=9	=9	=9	=9	=9	=9	=9	=9	=9	=9	=9	=9
8F\	.	8F\	8r	16ee-\LL	8r	.	8r	.	2.ryy	2.ryy	1.r	.	2.r	.	2.ryy	2.ryy	2.ryy	2.ryy	2.ryy	2.r	.	2.r	.	2.ryy	2.ryy	2.r	.	2.r	.	2.ryy	2.ryy	2.ryy	2.ryy
.	.	.	.	16dd\	.	.	.	.	.	.	.	.	.	.	.	.	.	.	.	.	.	.	.	.	.	.	.	.	.	.	.	.	.
8r	.	8r	8F/	16ff\	8A-/	.	8d/	.	.	.	.	.	.	.	.	.	.	.	.	.	.	.	.	.	.	.	.	.	.	.	.	.	.
.	.	.	.	16dd\JJ	.	.	.	.	.	.	.	.	.	.	.	.	.	.	.	.	.	.	.	.	.	.	.	.	.	.	.	.	.
8G\	.	8G\	8r	4cc\	8r	.	8r	.	.	.	.	.	.	.	.	.	.	.	.	.	.	.	.	.	.	.	.	.	.	.	.	.	.
8r	.	8r	8E-/	.	8G/	.	8c/	.	.	.	.	.	.	.	.	.	.	.	.	.	.	.	.	.	.	.	.	.	.	.	.	.	.
8GG/	.	8GG/	8r	4bnt\	8r	.	8r	.	.	.	.	.	.	.	.	.	.	.	.	.	.	.	.	.	.	.	.	.	.	.	.	.	.
8r	.	8r	8D/	.	8G/	.	8Bn/	.	.	.	.	.	.	.	.	.	.	.	.	.	.	.	.	.	.	.	.	.	.	.	.	.	.
!	!	!	!LO:LB:g=original	!LO:LB:g=original	!	!	!LO:LB:g=original	!	!	!	!	!	!	!	!	!	!	!	!	!	!	!	!	!	!	!	!	!	!	!	!	!	!
=10	=10	=10	=10	=10	=10	=10	=10	=10	=10	=10	=10	=10	=10	=10	=10	=10	=10	=10	=10	=10	=10	=10	=10	=10	=10	=10	=10	=10	=10	=10	=10	=10	=10
.	.	.	.	8qqan/	.	.	.	.	.	.	.	.	.	.	.	.	.	.	.	.	.	.	.	.	.	.	.	.	.	.	.	.	.
8C\	.	8C/	4D/	4dd\	4.G/	.	(4Bn/	.	2.ryy	2.ryy	.	.	2.r	.	2.ryy	2.ryy	2.ryy	2.ryy	2.ryy	2.r	.	2.r	.	2.ryy	2.ryy	2.r	.	2.r	.	2.ryy	2.ryy	2.ryy	2.ryy
8r	.	8r	.	.	.	.	.	.	.	.	.	.	.	.	.	.	.	.	.	.	.	.	.	.	.	.	.	.	.	.	.	.	.
.	.	.	.	16qqee-/LL	.	.	.	.	.	.	.	.	.	.	.	.	.	.	.	.	.	.	.	.	.	.	.	.	.	.	.	.	.
.	.	.	.	16qqdd/JJ	.	.	.	.	.	.	.	.	.	.	.	.	.	.	.	.	.	.	.	.	.	.	.	.	.	.	.	.	.
8C\	.	8C/	8E-/	8cc\	.	.	8c/)	.	.	.	.	.	.	.	.	.	.	.	.	.	.	.	.	.	.	.	.	.	.	.	.	.	.
8r	.	8r	8r	8r	8r	.	8r	.	.	.	.	.	.	.	.	.	.	.	.	.	.	.	.	.	.	.	.	.	.	.	.	.	.
4r	.	4r	4r	4r	4r	.	4r	.	.	.	.	.	.	.	.	.	.	.	.	.	.	.	.	.	.	.	.	.	.	.	.	.	.
!	!	!LO:LB:g=original	!	!	!LO:LB:g=original	!	!	!	!	!	!	!	!	!	!	!	!	!	!	!	!	!	!	!	!	!	!	!	!	!	!	!	!
=11	=11	=11	=11	=11	=11	=11	=11	=11	=11	=11	=11	=11	=11	=11	=11	=11	=11	=11	=11	=11	=11	=11	=11	=11	=11	=11	=11	=11	=11	=11	=11	=11	=11
*	*	*	*	*	*	*	*	*	*	*	*2\right	*	*	*	*	*	*	*	*	*	*	*	*	*	*	*	*	*	*	*	*	*	*
!	!LO:DY:t=po	!	!	!	!	!	!	!	!	!	!LO:TX:t=P:problem=wszystkie dolne caudy z prawej strony	!	!	!	!	!	!	!	!	!	!	!	!	!	!	!	!	!	!	!	!	!	!
8C\	p	8C/	2G/	8c\	8r	.	8r	.	2.ryy	2.ryy	2ee-\	Ju-	2.r	.	2.ryy	2.ryy	2.ryy	2.ryy	2.ryy	2.r	.	2.r	.	2.ryy	2.ryy	2.r	.	2.r	.	2.ryy	2.ryy	2.ryy	2.ryy
8r	.	8r	.	8r	8e-/L	.	8g/L	.	.	.	.	.	.	.	.	.	.	.	.	.	.	.	.	.	.	.	.	.	.	.	.	.	.
8E-\	.	8E-\	.	8e-\	8e-/	.	8g/	.	.	.	.	.	.	.	.	.	.	.	.	.	.	.	.	.	.	.	.	.	.	.	.	.	.
8r	.	8r	.	8r	8e-/	.	8g/	.	.	.	.	.	.	.	.	.	.	.	.	.	.	.	.	.	.	.	.	.	.	.	.	.	.
8G\	.	8G\	4Bn/	8g\	8d/	.	8f/	.	.	.	4dd\	-dex	.	.	.	.	.	.	.	.	.	.	.	.	.	.	.	.	.	.	.	.	.
8r	.	8r	.	8r	8d/J	.	8f/J	.	.	.	.	.	.	.	.	.	.	.	.	.	.	.	.	.	.	.	.	.	.	.	.	.	.
=12	=12	=12	=12	=12	=12	=12	=12	=12	=12	=12	=12	=12	=12	=12	=12	=12	=12	=12	=12	=12	=12	=12	=12	=12	=12	=12	=12	=12	=12	=12	=12	=12	=12
8c\	.	8c\	4Bn/	8cc\	4d/	.	((4f/ 4G/	.	2.ryy	2.ryy	4dd\	er-	2.r	.	2.ryy	2.ryy	2.ryy	2.ryy	2.ryy	2.r	.	2.r	.	2.ryy	2.ryy	2.r	.	2.r	.	2.ryy	2.ryy	2.ryy	2.ryy
8r	.	8r	.	8r	.	.	.	.	.	.	.	.	.	.	.	.	.	.	.	.	.	.	.	.	.	.	.	.	.	.	.	.	.
8C/	.	8C/	8c/	8r	8c/	.	8e-/ 8G/))	.	.	.	8cc\	-go	.	.	.	.	.	.	.	.	.	.	.	.	.	.	.	.	.	.	.	.	.
8r	.	8r	8r	16cc\LL	8r	.	8r	.	.	.	8r	.	.	.	.	.	.	.	.	.	.	.	.	.	.	.	.	.	.	.	.	.	.
.	.	.	.	16ee-\JJ	.	.	.	.	.	.	.	.	.	.	.	.	.	.	.	.	.	.	.	.	.	.	.	.	.	.	.	.	.
4r	.	4r	4r	16dd\LL	4r	.	4r	.	.	.	4r	.	.	.	.	.	.	.	.	.	.	.	.	.	.	.	.	.	.	.	.	.	.
.	.	.	.	16cc\	.	.	.	.	.	.	.	.	.	.	.	.	.	.	.	.	.	.	.	.	.	.	.	.	.	.	.	.	.
.	.	.	.	16bn\	.	.	.	.	.	.	.	.	.	.	.	.	.	.	.	.	.	.	.	.	.	.	.	.	.	.	.	.	.
.	.	.	.	16cc\JJ	.	.	.	.	.	.	.	.	.	.	.	.	.	.	.	.	.	.	.	.	.	.	.	.	.	.	.	.	.
=13	=13	=13	=13	=13	=13	=13	=13	=13	=13	=13	=13	=13	=13	=13	=13	=13	=13	=13	=13	=13	=13	=13	=13	=13	=13	=13	=13	=13	=13	=13	=13	=13	=13
8G\	.	8G\	2.G/	8bn\	8r	.	8r	.	2.ryy	2.ryy	2ff\	cum	2.r	.	2.ryy	2.ryy	2.ryy	2.ryy	2.ryy	2.r	.	2.r	.	2.ryy	2.ryy	2.r	.	2.r	.	2.ryy	2.ryy	2.ryy	2.ryy
8r	.	8r	.	8r	8d/L	.	8f/L	.	.	.	.	.	.	.	.	.	.	.	.	.	.	.	.	.	.	.	.	.	.	.	.	.	.
8Bn\	.	8Bn\	.	8b\	8d/	.	8f/	.	.	.	.	.	.	.	.	.	.	.	.	.	.	.	.	.	.	.	.	.	.	.	.	.	.
8r	.	8r	.	8r	8d/	.	8f/	.	.	.	.	.	.	.	.	.	.	.	.	.	.	.	.	.	.	.	.	.	.	.	.	.	.
!LO:TX:t=P:mixedbeam:problem	!	!LO:TX:t=P:problem=mixedbeam	!	!	!	!	!	!	!	!	!	!	!	!	!	!	!	!	!	!	!	!	!	!	!	!	!	!	!	!	!	!	!
8c\L	.	8c\L	.	8b\	8c/	.	8e-/	.	.	.	4ee-\	se-	.	.	.	.	.	.	.	.	.	.	.	.	.	.	.	.	.	.	.	.	.
8C/J	.	8C/J	.	8r	8c/J	.	8e-/J	.	.	.	.	.	.	.	.	.	.	.	.	.	.	.	.	.	.	.	.	.	.	.	.	.	.
!LO:LB:g=original	!	!	!	!LO:LB:g=original	!	!	!	!	!	!	!LO:LB:g=original	!	!	!	!	!	!	!	!	!	!	!	!	!	!	!	!	!	!	!	!	!	!
=14	=14	=14	=14	=14	=14	=14	=14	=14	=14	=14	=14	=14	=14	=14	=14	=14	=14	=14	=14	=14	=14	=14	=14	=14	=14	=14	=14	=14	=14	=14	=14	=14	=14
4G\	.	4G\	4G/	4g\	4c/	.	(4e-/	.	2.ryy	2.ryy	4ee-\	-de-	2.r	.	2.ryy	2.ryy	2.ryy	2.ryy	2.ryy	2.r	.	2.r	.	2.ryy	2.ryy	2.r	.	2.r	.	2.ryy	2.ryy	2.ryy	2.ryy
8GG/	.	8GG/	8G/	8r	8Bn/	.	8d/)	.	.	.	8dd\	-bit	.	.	.	.	.	.	.	.	.	.	.	.	.	.	.	.	.	.	.	.	.
8r	.	8r	8r	16bn\LL	8r	.	8r	.	.	.	8r	.	.	.	.	.	.	.	.	.	.	.	.	.	.	.	.	.	.	.	.	.	.
.	.	.	.	16cc\JJ	.	.	.	.	.	.	.	.	.	.	.	.	.	.	.	.	.	.	.	.	.	.	.	.	.	.	.	.	.
4r	.	4r	4r	16dd\LL	4r	.	4r	.	.	.	4r	.	.	.	.	.	.	.	.	.	.	.	.	.	.	.	.	.	.	.	.	.	.
.	.	.	.	16ee-\	.	.	.	.	.	.	.	.	.	.	.	.	.	.	.	.	.	.	.	.	.	.	.	.	.	.	.	.	.
.	.	.	.	16ff\	.	.	.	.	.	.	.	.	.	.	.	.	.	.	.	.	.	.	.	.	.	.	.	.	.	.	.	.	.
.	.	.	.	16ff#X\JJ	.	.	.	.	.	.	.	.	.	.	.	.	.	.	.	.	.	.	.	.	.	.	.	.	.	.	.	.	.
!	!	!	!	!	!	!	!LO:LB:g=original	!	!	!	!	!	!	!	!	!	!	!	!	!	!	!	!	!	!	!	!	!	!	!	!	!	!
=15	=15	=15	=15	=15	=15	=15	=15	=15	=15	=15	=15	=15	=15	=15	=15	=15	=15	=15	=15	=15	=15	=15	=15	=15	=15	=15	=15	=15	=15	=15	=15	=15	=15
4C/	.	4C/	2.G/	4gg\	4e-/	.	(4g/	.	2.ryy	2.ryy	4gg\	quid-	2.r	.	2.ryy	2.ryy	2.ryy	2.ryy	2.ryy	2.r	.	2.r	.	2.ryy	2.ryy	2.r	.	2.r	.	2.ryy	2.ryy	2.ryy	2.ryy
8c\	.	8c\	.	16r	8c/	.	8e-/)	.	.	.	4ee-\	-quid	.	.	.	.	.	.	.	.	.	.	.	.	.	.	.	.	.	.	.	.	.
.	.	.	.	16gg'\LL	.	.	.	.	.	.	.	.	.	.	.	.	.	.	.	.	.	.	.	.	.	.	.	.	.	.	.	.	.
8r	.	8r	.	16gg'\	8r	.	8r	.	.	.	.	.	.	.	.	.	.	.	.	.	.	.	.	.	.	.	.	.	.	.	.	.	.
.	.	.	.	16gg'\JJ	.	.	.	.	.	.	.	.	.	.	.	.	.	.	.	.	.	.	.	.	.	.	.	.	.	.	.	.	.
4r	.	4r	.	(16aa-\LL	4r	.	4r	.	.	.	4r	.	.	.	.	.	.	.	.	.	.	.	.	.	.	.	.	.	.	.	.	.	.
.	.	.	.	16gg\	.	.	.	.	.	.	.	.	.	.	.	.	.	.	.	.	.	.	.	.	.	.	.	.	.	.	.	.	.
.	.	.	.	16ff#X\	.	.	.	.	.	.	.	.	.	.	.	.	.	.	.	.	.	.	.	.	.	.	.	.	.	.	.	.	.
.	.	.	.	16gg\JJ)	.	.	.	.	.	.	.	.	.	.	.	.	.	.	.	.	.	.	.	.	.	.	.	.	.	.	.	.	.
=16	=16	=16	=16	=16	=16	=16	=16	=16	=16	=16	=16	=16	=16	=16	=16	=16	=16	=16	=16	=16	=16	=16	=16	=16	=16	=16	=16	=16	=16	=16	=16	=16	=16
.	.	.	.	.	8qe-/	.	8qg/	.	.	.	8qgg/	.	.	.	.	.	.	.	.	.	.	.	.	.	.	.	.	.	.	.	.	.	.
4GG/	.	4GG/	2.G/	4r	4d/	.	(4f/	.	2.ryy	2.ryy	4ff\	la-	2.r	.	2.ryy	2.ryy	2.ryy	2.ryy	2.ryy	2.r	.	2.r	.	2.ryy	2.ryy	2.r	.	2.r	.	2.ryy	2.ryy	2.ryy	2.ryy
8G\	.	8G\	.	16r	8Bn/	.	8d/)	.	.	.	8dd\	-tet,	.	.	.	.	.	.	.	.	.	.	.	.	.	.	.	.	.	.	.	.	.
.	.	.	.	16ffn'\LL	.	.	.	.	.	.	.	.	.	.	.	.	.	.	.	.	.	.	.	.	.	.	.	.	.	.	.	.	.
8r	.	8r	.	16ff'\	8r	.	8r	.	.	.	8r	.	.	.	.	.	.	.	.	.	.	.	.	.	.	.	.	.	.	.	.	.	.
.	.	.	.	16ff'\JJ	.	.	.	.	.	.	.	.	.	.	.	.	.	.	.	.	.	.	.	.	.	.	.	.	.	.	.	.	.
4r	.	4r	.	(16gg\LL	4r	.	4r	.	.	.	4r	.	.	.	.	.	.	.	.	.	.	.	.	.	.	.	.	.	.	.	.	.	.
.	.	.	.	16ff\	.	.	.	.	.	.	.	.	.	.	.	.	.	.	.	.	.	.	.	.	.	.	.	.	.	.	.	.	.
.	.	.	.	16een\	.	.	.	.	.	.	.	.	.	.	.	.	.	.	.	.	.	.	.	.	.	.	.	.	.	.	.	.	.
.	.	.	.	16ff\JJ)	.	.	.	.	.	.	.	.	.	.	.	.	.	.	.	.	.	.	.	.	.	.	.	.	.	.	.	.	.
!	!	!LO:LB:g=original	!LO:LB:g=original	!	!LO:LB:g=original	!	!	!	!	!	!	!	!	!	!	!	!	!	!	!	!	!	!	!	!	!	!	!	!	!	!	!	!
=17	=17	=17	=17	=17	=17	=17	=17	=17	=17	=17	=17	=17	=17	=17	=17	=17	=17	=17	=17	=17	=17	=17	=17	=17	=17	=17	=17	=17	=17	=17	=17	=17	=17
*	*	*	*	*2\right	*	*	*	*	*	*	*	*	*	*	*	*	*	*	*	*	*	*	*	*	*	*	*	*	*	*	*	*	*
2AA-^/	.	2AA-/	2A-/	2ee-X\	2c/	.	2e-/	.	2.ryy	2.ryy	2ee-\	ap-	2.r	.	2.ryy	2.ryy	2.ryy	2.ryy	2.ryy	2.r	.	2.r	.	2.ryy	2.ryy	2.r	.	2.r	.	2.ryy	2.ryy	2.ryy	2.ryy
.	.	.	.	.	.	.	.	.	.	.	16qqff/LL	.	.	.	.	.	.	.	.	.	.	.	.	.	.	.	.	.	.	.	.	.	.
.	.	.	.	.	.	.	.	.	.	.	16qqee-/JJ	.	.	.	.	.	.	.	.	.	.	.	.	.	.	.	.	.	.	.	.	.	.
4AA-/	.	4AA-/	4F#X/	4ff#Xt\	4c/	.	4e-/	.	.	.	8dd\L	-pa-	.	.	.	.	.	.	.	.	.	.	.	.	.	.	.	.	.	.	.	.	.
.	.	.	.	.	.	.	.	.	.	.	8cc\J	.	.	.	.	.	.	.	.	.	.	.	.	.	.	.	.	.	.	.	.	.	.
!	!	!	!	!LO:LB:g=original	!	!	!	!	!	!	!	!	!	!	!	!	!	!	!	!	!	!	!	!	!	!	!	!	!	!	!	!	!
=18	=18	=18	=18	=18	=18	=18	=18	=18	=18	=18	=18	=18	=18	=18	=18	=18	=18	=18	=18	=18	=18	=18	=18	=18	=18	=18	=18	=18	=18	=18	=18	=18	=18
4GG/	.	4GG/	4G/	4gg\	8.c/L	.	8e-/L	.	2.ryy	2.ryy	8.cc\L	-re-	2.r	.	2.ryy	2.ryy	2.ryy	2.ryy	2.ryy	4r	.	4r	.	2.ryy	2.ryy	2.r	.	2.r	.	2.ryy	2.ryy	2.ryy	2.ryy
.	.	.	.	.	.	.	16d/Jk	.	.	.	.	.	.	.	.	.	.	.	.	.	.	.	.	.	.	.	.	.	.	.	.	.	.
.	.	.	.	.	16Bn/Jk	.	16r	.	.	.	16bn\Jk	.	.	.	.	.	.	.	.	.	.	.	.	.	.	.	.	.	.	.	.	.	.
8G\	.	8G\	8G/	4r	8B/	.	8d/	.	.	.	8b\	-bit	.	.	.	.	.	.	.	8r	.	8r	.	.	.	.	.	.	.	.	.	.	.
!	!	!	!	!	!	!	!	!	!	!	!	!	!	!	!	!	!	!	!	!LO:TX:t=P:p=po:global:problem	!LO:DY:rj	!LO:TX:t=P:p=po:global:problem	!	!	!	!	!	!	!	!	!	!	!
8r	.	8r	8r	.	8r	.	8r	.	.	.	8r	.	.	.	.	.	.	.	.	(8G'/L	p	8G'/L	p	.	.	.	.	.	.	.	.	.	.
(4BBn^/	.	4BBn/	4G/	4Bn/	4G/	.	4d/	.	.	.	8.gg\	nil	.	.	.	.	.	.	.	8G'/	.	8G'/	.	.	.	.	.	.	.	.	.	.	.
.	.	.	.	.	.	.	.	.	.	.	.	.	.	.	.	.	.	.	.	8G'/J)	.	8G'/J	.	.	.	.	.	.	.	.	.	.	.
.	.	.	.	.	.	.	.	.	.	.	16dd\	in-	.	.	.	.	.	.	.	.	.	.	.	.	.	.	.	.	.	.	.	.	.
!LO:PB:g=original	!	!	!	!	!	!	!	!	!	!	!LO:LB:g=original	!	!	!	!	!	!	!	!	!	!	!	!	!	!	!	!	!	!	!	!	!	!
=19	=19	=19	=19	=19	=19	=19	=19	=19	=19	=19	=19	=19	=19	=19	=19	=19	=19	=19	=19	=19	=19	=19	=19	=19	=19	=19	=19	=19	=19	=19	=19	=19	=19
8C/)	.	8C/	8G/	8c/	8d/L	.	(8f/L	.	2.ryy	2.ryy	8.ff\L	-ul-	2.r	.	2.ryy	2.ryy	2.ryy	2.ryy	2.ryy	[2.G/	.	[2.G/	.	2.ryy	2.ryy	2.r	.	2.r	.	2.ryy	2.ryy	2.ryy	2.ryy
8r	.	8r	8G/L	8r	8c/	.	8e-/)	.	.	.	.	.	.	.	.	.	.	.	.	.	.	.	.	.	.	.	.	.	.	.	.	.	.
.	.	.	.	.	.	.	.	.	.	.	16ee-\Jk	.	.	.	.	.	.	.	.	.	.	.	.	.	.	.	.	.	.	.	.	.	.
8C/	.	8C/	8G/	8c/	8c/	.	8e-'/	.	.	.	8ee-\	-tum	.	.	.	.	.	.	.	.	.	.	.	.	.	.	.	.	.	.	.	.	.
8r	.	8r	8G/J	8r	8c/J	.	8e-'/J	.	.	.	8r	.	.	.	.	.	.	.	.	.	.	.	.	.	.	.	.	.	.	.	.	.	.
(4BBn^/	.	4BBn/	4G/	8Bn/	4G/	.	4d^/	.	.	.	8.gg\	re-	.	.	.	.	.	.	.	.	.	.	.	.	.	.	.	.	.	.	.	.	.
.	.	.	.	8r	.	.	.	.	.	.	.	.	.	.	.	.	.	.	.	.	.	.	.	.	.	.	.	.	.	.	.	.	.
.	.	.	.	.	.	.	.	.	.	.	16dd\	-ma-	.	.	.	.	.	.	.	.	.	.	.	.	.	.	.	.	.	.	.	.	.
=20	=20	=20	=20	=20	=20	=20	=20	=20	=20	=20	=20	=20	=20	=20	=20	=20	=20	=20	=20	=20	=20	=20	=20	=20	=20	=20	=20	=20	=20	=20	=20	=20	=20
8C/)	.	8C/	8G/	8c/	8d/L	.	(8f/L	.	2.ryy	2.ryy	8.ff\L	-ne-	2.r	.	2.ryy	2.ryy	2.ryy	2.ryy	2.ryy	2G/]	.	2G/]	.	2.ryy	2.ryy	2.r	.	2.r	.	2.ryy	2.ryy	2.ryy	2.ryy
8r	.	8r	8G/L	8r	8c/	.	8e-/)	.	.	.	.	.	.	.	.	.	.	.	.	.	.	.	.	.	.	.	.	.	.	.	.	.	.
.	.	.	.	.	.	.	.	.	.	.	16ee-\Jk	.	.	.	.	.	.	.	.	.	.	.	.	.	.	.	.	.	.	.	.	.	.
8C/	.	8C/	8G/	8c/	8c/	.	8e-'/	.	.	.	8ee-\	-bit	.	.	.	.	.	.	.	.	.	.	.	.	.	.	.	.	.	.	.	.	.
8r	.	8r	8G/J	8r	8c/J	.	8e-'/J	.	.	.	8r	.	.	.	.	.	.	.	.	.	.	.	.	.	.	.	.	.	.	.	.	.	.
(4E-^<\	.	4E-\	4e-\	8e-\	4c/	.	4g^/	.	.	.	8.cc\	nil	.	.	.	.	.	.	.	4r	.	4r	.	.	.	.	.	.	.	.	.	.	.
.	.	.	.	8r	.	.	.	.	.	.	.	.	.	.	.	.	.	.	.	.	.	.	.	.	.	.	.	.	.	.	.	.	.
.	.	.	.	.	.	.	.	.	.	.	16ee-\	in	.	.	.	.	.	.	.	.	.	.	.	.	.	.	.	.	.	.	.	.	.
!	!	!	!	!	!	!	!LO:PB:g=original	!	!	!	!	!	!	!	!	!	!	!	!	!LO:LB:g=original	!	!	!	!	!	!	!	!	!	!	!	!	!
=21	=21	=21	=21	=21	=21	=21	=21	=21	=21	=21	=21	=21	=21	=21	=21	=21	=21	=21	=21	=21	=21	=21	=21	=21	=21	=21	=21	=21	=21	=21	=21	=21	=21
!	!	!	!	!	!	!	!	!	!	!	!	!	!	!	!	!	!	!	!	!	!	!LO:TX:a:t=1	!	!	!	!	!	!	!	!	!	!	!
8F\)	.	8F\	8d\	8f\	8c/	.	8a-/	.	2.ryy	2.ryy	16.ee-\LL	ul-	2.r	.	2.ryy	2.ryy	2.ryy	2.ryy	2.ryy	2.r	.	2.r	.	2.ryy	2.ryy	2.r	.	2.r	.	2.ryy	2.ryy	2.ryy	2.ryy
.	.	.	.	.	.	.	.	.	.	.	32dd\JJk	.	.	.	.	.	.	.	.	.	.	.	.	.	.	.	.	.	.	.	.	.	.
8r	.	8r	8r	8r	8r	.	8r	.	.	.	16.ff\LL	-tum	.	.	.	.	.	.	.	.	.	.	.	.	.	.	.	.	.	.	.	.	.
.	.	.	.	.	.	.	.	.	.	.	32dd\JJk	.	.	.	.	.	.	.	.	.	.	.	.	.	.	.	.	.	.	.	.	.	.
8G\	.	8G\	8c\	8g\	8e-/	.	8g/	.	.	.	4cc\	re-	.	.	.	.	.	.	.	.	.	.	.	.	.	.	.	.	.	.	.	.	.
8r	.	8r	8r	8r	8r	.	8r	.	.	.	.	.	.	.	.	.	.	.	.	.	.	.	.	.	.	.	.	.	.	.	.	.	.
8GG/	.	8GG/	8Bn/	8G/	8d/	.	8f/	.	.	.	4bnt\	-ma-	.	.	.	.	.	.	.	.	.	.	.	.	.	.	.	.	.	.	.	.	.
8r	.	8r	8r	8r	8r	.	8r	.	.	.	.	.	.	.	.	.	.	.	.	.	.	.	.	.	.	.	.	.	.	.	.	.	.
!	!	!	!LO:PB:g=original	!	!	!	!	!	!	!	!	!	!	!	!	!	!	!	!	!	!	!	!	!	!	!	!	!	!	!	!	!	!
=22	=22	=22	=22	=22	=22	=22	=22	=22	=22	=22	=22	=22	=22	=22	=22	=22	=22	=22	=22	=22	=22	=22	=22	=22	=22	=22	=22	=22	=22	=22	=22	=22	=22
[4C/	.	4C/	4Bn/	4c/	4d/	.	(4f/	.	2.ryy	2.ryy	4bn\	-ne-	2.r	.	2.ryy	2.ryy	2.ryy	2.ryy	2.ryy	4r	.	4r	.	2.ryy	2.ryy	2.r	.	2.r	.	2.ryy	2.ryy	2.ryy	2.ryy
8C/]	.	8C/	8c/	8c/	8c/	.	8e-/)	.	.	.	8cc\	-bit	.	.	.	.	.	.	.	8r	.	8r	.	.	.	.	.	.	.	.	.	.	.
!	!	!	!	!	!LO:TX:t=P:problem=łamanie linii w takcie	!	!	!	!	!	!	!	!	!	!	!	!	!	!	!	!LO:DY:rj:t=p	!	!LO:DY:rj:t=p	!	!	!	!	!	!	!	!	!	!
8r	.	8r	8r	8r	8r	.	8r	.	.	.	8r	.	.	.	.	.	.	.	.	(8G'/L	p	(8G'/L	p	.	.	.	.	.	.	.	.	.	.
!	!	!	!	!	!LO:LB:g=original	!	!	!	!	!	!	!	!	!	!	!	!	!	!	!	!	!	!	!	!	!	!	!	!	!	!	!	!
(4BBn^/	.	4BBn/	[4G/	4Bn/	4G/	.	4d/	.	.	.	8.dd\	nil	.	.	.	.	.	.	.	8G'/	.	8G'/	.	.	.	.	.	.	.	.	.	.	.
.	.	.	.	.	.	.	.	.	.	.	.	.	.	.	.	.	.	.	.	8G'/J)	.	8G'/J)	.	.	.	.	.	.	.	.	.	.	.
.	.	.	.	.	.	.	.	.	.	.	16ff\	in-	.	.	.	.	.	.	.	.	.	.	.	.	.	.	.	.	.	.	.	.	.
!LO:LB:g=original	!	!LO:LB:g=original	!	!LO:LB:g=original	!	!	!	!	!	!	!LO:LB:g=original	!	!	!	!	!	!	!	!	!	!	!	!	!	!	!	!	!	!	!	!	!	!
=23	=23	=23	=23	=23	=23	=23	=23	=23	=23	=23	=23	=23	=23	=23	=23	=23	=23	=23	=23	=23	=23	=23	=23	=23	=23	=23	=23	=23	=23	=23	=23	=23	=23
8C/)	.	8C/	8G/]	8c/	8d/L	.	8f/L	.	2.ryy	2.ryy	4ff\	-ul-	2.r	.	2.ryy	2.ryy	2.ryy	2.ryy	2.ryy	2.G/	.	[2.G/	.	2.ryy	2.ryy	2.r	.	2.r	.	2.ryy	2.ryy	2.ryy	2.ryy
8r	.	8r	8G/L	8r	8c/	.	8e-/	.	.	.	.	.	.	.	.	.	.	.	.	.	.	.	.	.	.	.	.	.	.	.	.	.	.
8C/	.	8C/	8G/	8c/	8c/	.	8e-/	.	.	.	8ee-\	-tum	.	.	.	.	.	.	.	.	.	.	.	.	.	.	.	.	.	.	.	.	.
8r	.	8r	8G/J	8r	8c/J	.	8e-/J	.	.	.	8r	.	.	.	.	.	.	.	.	.	.	.	.	.	.	.	.	.	.	.	.	.	.
(4BBn^/	.	8BBn/	[4G/	8Bn/	4G/	.	4d/	.	.	.	16ddt\KL	re-	.	.	.	.	.	.	.	.	.	.	.	.	.	.	.	.	.	.	.	.	.
.	.	.	.	.	.	.	.	.	.	.	8gg\J	.	.	.	.	.	.	.	.	.	.	.	.	.	.	.	.	.	.	.	.	.	.
.	.	8r	.	8r	.	.	.	.	.	.	.	.	.	.	.	.	.	.	.	.	.	.	.	.	.	.	.	.	.	.	.	.	.
.	.	.	.	.	.	.	.	.	.	.	16ff\	-ma-	.	.	.	.	.	.	.	.	.	.	.	.	.	.	.	.	.	.	.	.	.
=24	=24	=24	=24	=24	=24	=24	=24	=24	=24	=24	=24	=24	=24	=24	=24	=24	=24	=24	=24	=24	=24	=24	=24	=24	=24	=24	=24	=24	=24	=24	=24	=24	=24
8C/)	.	8C/	8G/]	8B-/	8d/L	.	8f/L	.	2.ryy	2.ryy	4ff\	-ne-	2.r	.	2.ryy	2.ryy	2.ryy	2.ryy	2.ryy	2G/	.	2G/]	.	2.ryy	2.ryy	2.r	.	2.r	.	2.ryy	2.ryy	2.ryy	2.ryy
8r	.	8r	8G/L	8r	8c/	.	8e-/	.	.	.	.	.	.	.	.	.	.	.	.	.	.	.	.	.	.	.	.	.	.	.	.	.	.
8C/	.	8C/	8G/	8B-/	8c/	.	8e-/	.	.	.	8ee-\	-bit	.	.	.	.	.	.	.	.	.	.	.	.	.	.	.	.	.	.	.	.	.
8r	.	8r	8G/J	8r	8c/J	.	8e-/J	.	.	.	8r	.	.	.	.	.	.	.	.	.	.	.	.	.	.	.	.	.	.	.	.	.	.
(4E-^<\	.	4E-\	4e-\	4e-\	4c/	.	4g/	.	.	.	8.cc\	nil	.	.	.	.	.	.	.	4r	.	4r	.	.	.	.	.	.	.	.	.	.	.
.	.	.	.	.	.	.	.	.	.	.	16ee-\	in-	.	.	.	.	.	.	.	.	.	.	.	.	.	.	.	.	.	.	.	.	.
!	!	!	!	!	!	!	!	!	!	!	!	!	!	!	!	!	!	!	!	!	!	!LO:PB:g=original	!	!	!	!	!	!	!	!	!	!	!
=25	=25	=25	=25	=25	=25	=25	=25	=25	=25	=25	=25	=25	=25	=25	=25	=25	=25	=25	=25	=25	=25	=25	=25	=25	=25	=25	=25	=25	=25	=25	=25	=25	=25
!	!	!	!	!	!	!	!	!	!	!	!	!	!	!	!	!	!	!	!	!LO:TX:a:t=2	!	!LO:TX:a:t=2	!	!	!	!	!	!	!	!	!	!	!
8F\)	.	8F\	8d\	8f\	8c/	.	8a-/	.	2.ryy	2.ryy	16ee-\LL	-ul-	2.r	.	2.ryy	2.ryy	2.ryy	2.ryy	2.ryy	1.r	.	1.r	.	2.ryy	2.ryy	2.r	.	2.r	.	2.ryy	2.ryy	2.ryy	2.ryy
.	.	.	.	.	.	.	.	.	.	.	16dd\JJ	.	.	.	.	.	.	.	.	.	.	.	.	.	.	.	.	.	.	.	.	.	.
8r	.	8r	8r	8r	8r	.	8r	.	.	.	16ff\LL	-tum	.	.	.	.	.	.	.	.	.	.	.	.	.	.	.	.	.	.	.	.	.
.	.	.	.	.	.	.	.	.	.	.	16dd\JJ	.	.	.	.	.	.	.	.	.	.	.	.	.	.	.	.	.	.	.	.	.	.
8G\	.	8G\	8c\	8g\	8e-/	.	8g/	.	.	.	4cc\	re-	.	.	.	.	.	.	.	.	.	.	.	.	.	.	.	.	.	.	.	.	.
8r	.	8r	8r	8r	8r	.	8r	.	.	.	.	.	.	.	.	.	.	.	.	.	.	.	.	.	.	.	.	.	.	.	.	.	.
8G\	.	8G\	8Bn/	8g\	8d/	.	8f/	.	.	.	4bnt\	-ma-	.	.	.	.	.	.	.	.	.	.	.	.	.	.	.	.	.	.	.	.	.
8r	.	8r	8r	8r	8r	.	8r	.	.	.	.	.	.	.	.	.	.	.	.	.	.	.	.	.	.	.	.	.	.	.	.	.	.
!	!	!	!	!	!	!	!LO:LB:g=original	!	!	!	!	!	!	!	!	!	!	!	!	!	!	!	!	!	!	!	!	!	!	!	!	!	!
=26	=26	=26	=26	=26	=26	=26	=26	=26	=26	=26	=26	=26	=26	=26	=26	=26	=26	=26	=26	=26	=26	=26	=26	=26	=26	=26	=26	=26	=26	=26	=26	=26	=26
!	!	!	!	!	!	!	!	!	!	!	!LO:TX:t=P:problem=przepełniona miara taktu	!	!	!	!	!	!	!	!	!	!	!	!	!	!	!	!	!	!	!	!	!	!
[4A-^\	.	4A-\	(4Bn/	4a-\	4d/	.	(4f/	.	2.ryy	2.ryy	8bn\L	-ne-	2.r	.	2.ryy	2.ryy	2.ryy	2.ryy	2.ryy	.	.	.	.	2.ryy	2.ryy	2.r	.	2.r	.	2.ryy	2.ryy	2.ryy	2.ryy
.	.	.	.	.	.	.	.	.	.	.	32b\LL	.	.	.	.	.	.	.	.	.	.	.	.	.	.	.	.	.	.	.	.	.	.
.	.	.	.	.	.	.	.	.	.	.	32dd\	.	.	.	.	.	.	.	.	.	.	.	.	.	.	.	.	.	.	.	.	.	.
.	.	.	.	.	.	.	.	.	.	.	32cc\	.	.	.	.	.	.	.	.	.	.	.	.	.	.	.	.	.	.	.	.	.	.
.	.	.	.	.	.	.	.	.	.	.	32b\	.	.	.	.	.	.	.	.	.	.	.	.	.	.	.	.	.	.	.	.	.	.
8A-\]	.	8A-\	8c/)	8a-\	8c/	.	8e-/)	.	.	.	32cc\	.	.	.	.	.	.	.	.	.	.	.	.	.	.	.	.	.	.	.	.	.	.
.	.	.	.	.	.	.	.	.	.	.	32dd\JJJ	.	.	.	.	.	.	.	.	.	.	.	.	.	.	.	.	.	.	.	.	.	.
.	.	.	.	.	.	.	.	.	.	.	8cc\	-bit	.	.	.	.	.	.	.	.	.	.	.	.	.	.	.	.	.	.	.	.	.
8r	.	8r	8r	8r	8r	.	8r	.	.	.	.	.	.	.	.	.	.	.	.	.	.	.	.	.	.	.	.	.	.	.	.	.	.
!	!	!	!	!	!	!	!	!	!	!	!LO:N:vis=8	!	!	!	!	!	!	!	!	!	!	!	!	!	!	!	!	!	!	!	!	!	!
.	.	.	.	.	.	.	.	.	.	.	16r	.	.	.	.	.	.	.	.	.	.	.	.	.	.	.	.	.	.	.	.	.	.
!	!	!	!	!	!	!	!	!	!	!	!LO:LB:g=original	!	!	!	!	!	!	!	!	!	!	!	!	!	!	!	!	!	!	!	!	!	!
(4E-^<\	.	4E-\	4e-\	4e-\	4c/	.	4g/	.	.	.	8.cc\	nil	.	.	.	.	.	.	.	.	.	.	.	.	.	.	.	.	.	.	.	.	.
.	.	.	.	.	.	.	.	.	.	.	16ee-\	in-	.	.	.	.	.	.	.	.	.	.	.	.	.	.	.	.	.	.	.	.	.
!	!	!	!LO:LB:g=original	!	!	!	!	!	!	!	!	!	!	!	!	!	!	!	!	!	!	!	!	!	!	!	!	!	!	!	!	!	!
=27	=27	=27	=27	=27	=27	=27	=27	=27	=27	=27	=27	=27	=27	=27	=27	=27	=27	=27	=27	=27	=27	=27	=27	=27	=27	=27	=27	=27	=27	=27	=27	=27	=27
!	!	!LO:TX:t=P:problem=mixedbeam	!	!	!	!	!	!	!	!	!	!	!	!	!	!	!	!	!	!	!	!	!	!	!	!	!	!	!	!	!	!	!
8F\L)	f	8F\L	8d\L	4f\	8c/L	.	8a-/L	.	2.ryy	2.ryy	16dd\	-ul-	2.r	.	2.ryy	2.ryy	2.ryy	2.ryy	2.ryy	4r	.	4r	.	2.ryy	2.ryy	2.r	.	2.r	.	2.ryy	2.ryy	2.ryy	2.ryy
.	.	.	.	.	.	.	.	.	.	.	16aa-\	-tum	.	.	.	.	.	.	.	.	.	.	.	.	.	.	.	.	.	.	.	.	.
!	!LO:DY:t=po	!	!	!	!	!	!	!	!	!	!	!	!	!	!	!	!	!	!	!	!	!	!	!	!	!	!	!	!	!	!	!	!
8F\J	p	8F\	8d\J	.	8c/	.	8f/J	.	.	.	16ff\	re-	.	.	.	.	.	.	.	.	.	.	.	.	.	.	.	.	.	.	.	.	.
.	.	.	.	.	.	.	.	.	.	.	16dd\	-ma-	.	.	.	.	.	.	.	.	.	.	.	.	.	.	.	.	.	.	.	.	.
*	*	*	*tremolo	*	*	*	*	*	*	*	*	*	*	*	*	*	*	*	*	*	*	*	*	*	*	*	*	*	*	*	*	*	*
8G\L	.	8G\	8G/L	4g\	8c/	.	8e-/L	.	.	.	8cc\L	-ne-	.	.	.	.	.	.	.	4G/	.	4g\	.	.	.	.	.	.	.	.	.	.	.
8G\J	.	8G\	8G/	.	8c/	.	8e-/J	.	.	.	32dd\LL	.	.	.	.	.	.	.	.	.	.	.	.	.	.	.	.	.	.	.	.	.	.
.	.	.	.	.	.	.	.	.	.	.	32cc\	.	.	.	.	.	.	.	.	.	.	.	.	.	.	.	.	.	.	.	.	.	.
.	.	.	.	.	.	.	.	.	.	.	32bn\	.	.	.	.	.	.	.	.	.	.	.	.	.	.	.	.	.	.	.	.	.	.
.	.	.	.	.	.	.	.	.	.	.	32cc\JJJ	.	.	.	.	.	.	.	.	.	.	.	.	.	.	.	.	.	.	.	.	.	.
.	.	.	.	.	.	.	.	.	.	.	8qee-/	.	.	.	.	.	.	.	.	.	.	.	.	.	.	.	.	.	.	.	.	.	.
8GG/L	.	8GG/	8G/	4g\	8Bn/	.	8d/L	.	.	.	4dd\	.	.	.	.	.	.	.	.	4G/	.	4g\	.	.	.	.	.	.	.	.	.	.	.
8GG/J	.	8GG/J	8G/J	.	8B/J	.	8d/J	.	.	.	.	.	.	.	.	.	.	.	.	.	.	.	.	.	.	.	.	.	.	.	.	.	.
*	*	*	*Xtremolo	*	*	*	*	*	*	*	*	*	*	*	*	*	*	*	*	*	*	*	*	*	*	*	*	*	*	*	*	*	*
!LO:LB:g=original	!	!	!	!	!LO:LB:g=original	!	!	!	!	!	!	!	!	!	!	!	!	!	!	!	!	!	!	!	!	!	!	!	!	!	!	!	!
=28	=28	=28	=28	=28	=28	=28	=28	=28	=28	=28	=28	=28	=28	=28	=28	=28	=28	=28	=28	=28	=28	=28	=28	=28	=28	=28	=28	=28	=28	=28	=28	=28	=28
*2\right	*	*	*	*	*	*	*	*	*	*	*	*	*	*	*	*	*	*	*	*	*	*	*	*	*	*	*	*	*	*	*	*	*
!	!	!	!	!LO:TX:a:t=|	!	!	!	!	!	!	!	!	!	!	!	!	!	!	!	!	!	!	!	!	!	!LO:TX:b:i:t=dol	!	!LO:TX:b:i:t=dolce	!	!	!	!	!
(2C\	.	2C/	2C/	8c\L	8c/	.	8c/	.	2.ryy	2.ryy	4cc\	-bit	2.r	.	2.ryy	2.ryy	2.ryy	2.ryy	2.ryy	8G/	.	8g\	.	2.ryy	2.ryy	8r	.	8r	.	2.ryy	2.ryy	2.ryy	2.ryy
.	.	.	.	(8ee-\	8r	.	8r	.	.	.	.	.	.	.	.	.	.	.	.	8r	.	8r	.	.	.	(8cc\L	.	(8ee-\L	.	.	.	.	.
.	.	.	.	8dd\	4r	.	4r	.	.	.	4r	.	.	.	.	.	.	.	.	4r	.	4r	.	.	.	8b-\	>	8dd\	>	.	.	.	.
.	.	.	.	8cc\	.	.	.	.	.	.	.	.	.	.	.	.	.	.	.	.	.	.	.	.	.	8a-X\	.	8cc\	.	.	.	.	.
4D\)	.	4D/	4D/	8b-\ 8d\	4r	.	4r	.	.	.	4r	.	.	.	.	.	.	.	.	4r	.	4r	.	.	.	8g\	.	8b-\	.	.	.	.	.
.	.	.	.	8a-\J)	.	.	.	.	.	.	.	.	.	.	.	.	.	.	.	.	.	.	.	.	.	8f\J)	]	8a-\J)	]	.	.	.	.
!	!	!LO:LB:g=original	!	!LO:LB:g=original	!	!	!	!	!	!	!	!	!	!	!	!	!	!	!	!	!	!	!	!	!	!	!	!	!	!	!	!	!
=29	=29	=29	=29	=29	=29	=29	=29	=29	=29	=29	=29	=29	=29	=29	=29	=29	=29	=29	=29	=29	=29	=29	=29	=29	=29	=29	=29	=29	=29	=29	=29	=29	=29
*	*	*	*	*	*tremolo	*	*tremolo	*	*	*	*	*	*	*	*	*	*	*	*	*	*	*	*	*	*	*	*	*	*	*	*	*	*
!	!	!	!	!	!	!	!	!	!	!	!LO:TX:b:t=24.	!	!	!	!	!	!	!	!	!	!	!	!	!	!	!	!	!	!	!	!	!	!
8E-\	f	8E-\	8E-/L	8g\	8e-/ 8B-/L	.	8g/L	.	2.ryy	2.ryy	0.r	.	2.r	.	2.ryy	2.ryy	2.ryy	2.ryy	2.ryy	[2.B-/	.	[2.B-/	.	2.ryy	2.ryy	8e-/	.	8g/	.	2.ryy	2.ryy	2.ryy	2.ryy
8r	.	8r	8G/	8r	8e-/ 8B-/	.	8g/	.	.	.	.	.	.	.	.	.	.	.	.	.	.	.	.	.	.	8r	.	8r	.	.	.	.	.
!	!LO:DY:t=po	!	!	!	!	!	!	!	!	!	!	!	!	!	!	!	!	!	!	!	!	!	!	!	!	!	!	!	!	!	!	!	!
8E-\	p	8E-\	8B-/	8e-\	8e-/ 8B-/	.	8g/	.	.	.	.	.	.	.	.	.	.	.	.	.	.	.	.	.	.	2r	.	4r	.	.	.	.	.
8r	.	8r	8B-/J	8r	8e-/ 8B-/J	.	8g/	.	.	.	.	.	.	.	.	.	.	.	.	.	.	.	.	.	.	.	.	.	.	.	.	.	.
*	*	*	*	*	*Xtremolo	*	*	*	*	*	*	*	*	*	*	*	*	*	*	*	*	*	*	*	*	*	*	*	*	*	*	*	*
8E-\	.	8E-\	8B-/L	8e-\	8e-/L	.	8g/	.	.	.	.	.	.	.	.	.	.	.	.	.	.	.	.	.	.	.	.	4r	.	.	.	.	.
8r	.	8r	8B-/J	8r	8e-/J	.	8g/J	.	.	.	.	.	.	.	.	.	.	.	.	.	.	.	.	.	.	.	.	.	.	.	.	.	.
*	*	*	*	*	*	*	*Xtremolo	*	*	*	*	*	*	*	*	*	*	*	*	*	*	*	*	*	*	*	*	*	*	*	*	*	*
=30	=30	=30	=30	=30	=30	=30	=30	=30	=30	=30	=30	=30	=30	=30	=30	=30	=30	=30	=30	=30	=30	=30	=30	=30	=30	=30	=30	=30	=30	=30	=30	=30	=30
!	!	!	!	!	!	!	!	!	!	!	!	!	!	!	!	!	!	!	!	!	!	!	!	!	!	!LO:TX:a:t=2	!	!LO:TX:a:t=2	!	!	!	!	!
4B-\	.	4B-\	4B-/	4b-\	4e-/	.	4g/	.	2.ryy	2.ryy	.	.	2.r	.	2.ryy	2.ryy	2.ryy	2.ryy	2.ryy	2.B-/]	.	2.B-/]	.	2.ryy	2.ryy	1.r	.	1.r	.	2.ryy	2.ryy	2.ryy	2.ryy
8BB-/	.	8BB-/	8B-/	8B-/	8d/L	.	8f/L	.	.	.	.	.	.	.	.	.	.	.	.	.	.	.	.	.	.	.	.	.	.	.	.	.	.
8r	.	8r	8r	8r	8B-/J	.	8d/J	.	.	.	.	.	.	.	.	.	.	.	.	.	.	.	.	.	.	.	.	.	.	.	.	.	.
4r	.	4r	4r	4r	8B-/L	.	8d/L	.	.	.	.	.	.	.	.	.	.	.	.	.	.	.	.	.	.	.	.	.	.	.	.	.	.
.	.	.	.	.	8c/J	.	8e-/J	.	.	.	.	.	.	.	.	.	.	.	.	.	.	.	.	.	.	.	.	.	.	.	.	.	.
!	!	!	!	!	!	!	!	!	!	!	!	!	!	!	!	!	!	!	!	!LO:LB:g=original	!	!	!	!	!	!	!	!	!	!	!	!	!
=31	=31	=31	=31	=31	=31	=31	=31	=31	=31	=31	=31	=31	=31	=31	=31	=31	=31	=31	=31	=31	=31	=31	=31	=31	=31	=31	=31	=31	=31	=31	=31	=31	=31
*	*	*	*tremolo	*	*tremolo	*	*tremolo	*	*	*	*	*	*	*	*	*	*	*	*	*	*	*	*	*	*	*	*	*	*	*	*	*	*
8BB-/	fp	8BB-/	8B-/L	8B-/	8d/L	.	8f/L	.	2.ryy	2.ryy	.	.	2.r	.	2.ryy	2.ryy	2.ryy	2.ryy	2.ryy	2.B-/	.	[2.B-/	.	2.ryy	2.ryy	.	.	.	.	2.ryy	2.ryy	2.ryy	2.ryy
8r	.	8r	8B-/	8r	8d/	.	8f/	.	.	.	.	.	.	.	.	.	.	.	.	.	.	.	.	.	.	.	.	.	.	.	.	.	.
8BB-/	.	8BB-/	8B-/	8B-/	8d/	.	8f/	.	.	.	.	.	.	.	.	.	.	.	.	.	.	.	.	.	.	.	.	.	.	.	.	.	.
8r	.	8r	8B-/J	8r	8d/J	.	8f/J	.	.	.	.	.	.	.	.	.	.	.	.	.	.	.	.	.	.	.	.	.	.	.	.	.	.
*	*	*	*Xtremolo	*	*Xtremolo	*	*Xtremolo	*	*	*	*	*	*	*	*	*	*	*	*	*	*	*	*	*	*	*	*	*	*	*	*	*	*
8BB-/	.	8BB-/	8B-/L	8B-/	8.d/L	.	8.f/L	.	.	.	.	.	.	.	.	.	.	.	.	.	.	.	.	.	.	.	.	.	.	.	.	.	.
8r	.	8r	8B-/J	8r	.	.	.	.	.	.	.	.	.	.	.	.	.	.	.	.	.	.	.	.	.	.	.	.	.	.	.	.	.
.	.	.	.	.	16f/Jk	.	16a-/Jk	.	.	.	.	.	.	.	.	.	.	.	.	.	.	.	.	.	.	.	.	.	.	.	.	.	.
!	!	!	!	!	!	!	!LO:LB:g=original	!	!	!	!	!	!	!	!	!	!	!	!	!	!	!	!	!	!	!LO:LB:g=original	!	!LO:LB:g=original	!	!	!	!	!
=32	=32	=32	=32	=32	=32	=32	=32	=32	=32	=32	=32	=32	=32	=32	=32	=32	=32	=32	=32	=32	=32	=32	=32	=32	=32	=32	=32	=32	=32	=32	=32	=32	=32
4E-\	f	4E-\	4B-/	4e-\	4f/	.	(4a-/	.	2.ryy	2.ryy	.	.	2.r	.	2.ryy	2.ryy	2.ryy	2.ryy	2.ryy	[4E-/	.	4B-/]	.	2.ryy	2.ryy	4r	.	4r	.	2.ryy	2.ryy	2.ryy	2.ryy
!	!	!	!	!LO:N:vis=pauza8	!	!	!	!	!	!	!	!	!	!	!	!	!	!	!	!	!	!	!	!	!	!	!	!	!	!	!	!	!
8EE-/	p	8EE-/	8B-/	16r	8e-/	.	8g/)	.	.	.	.	.	.	.	.	.	.	.	.	8E-/]	.	8B-/	.	.	.	16r	.	16r	.	.	.	.	.
!	!	!	!	!	!	!	!	!	!	!	!	!	!	!	!	!	!	!	!	!	!	!	!	!	!	!LO:TX:t=P:p=po:global:problem	!	!LO:TX:t=P:p=po:global:problem	!	!	!	!	!
.	.	.	.	16g\LL	.	.	.	.	.	.	.	.	.	.	.	.	.	.	.	.	.	.	.	.	.	(16e-'/LL	p	(16g'/LL	p	.	.	.	.
8r	.	8r	8r	16a-\	8r	.	8r	.	.	.	.	.	.	.	.	.	.	.	.	8r	.	8r	.	.	.	16f'/	<	16a-'/	<	.	.	.	.
.	.	.	.	16b-\JJ	.	.	.	.	.	.	.	.	.	.	.	.	.	.	.	.	.	.	.	.	.	16g'/JJ	.	16b-'/JJ	.	.	.	.	.
4r	.	4r	4r	16cc\LL	4r	.	4r	.	.	.	.	.	.	.	.	.	.	.	.	4r	.	4r	.	.	.	16a-'\LL	.	16cc'\LL	.	.	.	.	.
.	.	.	.	16dd\	.	.	.	.	.	.	.	.	.	.	.	.	.	.	.	.	.	.	.	.	.	16b-'\	.	16dd'\	.	.	.	.	.
.	.	.	.	16ee-\	.	.	.	.	.	.	.	.	.	.	.	.	.	.	.	.	.	.	.	.	.	16cc'\	.	16ee-'\	.	.	.	.	.
.	.	.	.	16ff\JJ	.	.	.	.	.	.	.	.	.	.	.	.	.	.	.	.	.	.	.	.	.	16dd'\JJ)	[	16ff'\JJ)	[	.	.	.	.
!LO:LB:g=original	!	!	!LO:LB:g=original	!	!	!	!	!	!	!	!	!	!	!	!	!	!	!	!	!	!	!	!	!	!	!	!	!	!	!	!	!	!
=33	=33	=33	=33	=33	=33	=33	=33	=33	=33	=33	=33	=33	=33	=33	=33	=33	=33	=33	=33	=33	=33	=33	=33	=33	=33	=33	=33	=33	=33	=33	=33	=33	=33
!	!	!	!	!	!	!	!	!LO:DY:rj	!	!	!	!	!	!	!	!	!	!	!	!	!	!	!LO:DY:t=fp	!	!	!LO:TX:t=P:fp=fpo:problem	!	!LO:TX:t=P:fp=fpo:problem	!	!	!	!	!
4E-\	.	4E-\	4e-/ 4G/	4gg\	4gg/ 4b-/ 4e-/	.	4gg/ 4b-/ 4e-/	f	2.ryy	2.ryy	0.r	.	2.r	.	2.ryy	2.ryy	2.ryy	2.ryy	2.ryy	8E-/	.	8e-\	fp	2.ryy	2.ryy	8ee-\	fp	8gg\	fp	2.ryy	2.ryy	2.ryy	2.ryy
.	.	.	.	.	.	.	.	.	.	.	.	.	.	.	.	.	.	.	.	8r	.	8r	.	.	.	8r	.	8r	.	.	.	.	.
8EE-/	.	8EE-/	8E-/	8g\	4r	.	4r	.	.	.	.	.	.	.	.	.	.	.	.	4r	.	4r	.	.	.	4r	.	4r	.	.	.	.	.
8r	.	8r	8r	8r	.	.	.	.	.	.	.	.	.	.	.	.	.	.	.	.	.	.	.	.	.	.	.	.	.	.	.	.	.
4r	.	4r	4r	4r	4r	.	4r	.	.	.	.	.	.	.	.	.	.	.	.	4r	.	4r	.	.	.	4r	.	4r	.	.	.	.	.
!	!	!	!	!LO:LB:g=original	!LO:PB:g=original	!	!	!	!	!	!	!	!	!	!	!	!	!	!	!	!	!	!	!	!	!	!	!	!	!	!	!	!
=34	=34	=34	=34	=34	=34	=34	=34	=34	=34	=34	=34	=34	=34	=34	=34	=34	=34	=34	=34	=34	=34	=34	=34	=34	=34	=34	=34	=34	=34	=34	=34	=34	=34
!	!LO:DY:t=po	!	!	!	!	!	!	!LO:DY:rj	!	!	!	!	!	!	!	!	!	!	!	!LO:TX:a:t=2	!	!LO:TX:a:t=2	!	!	!	!LO:TX:a:t=2	!	!LO:TX:a:t=2	!	!	!	!	!
(<4BB-/	p	4BB-/	8.f\L	8.f\L	8.d/L	.	(8.b-/L	p	2.ryy	2.ryy	.	.	2.r	.	2.ryy	2.ryy	2.ryy	2.ryy	2.ryy	1.r	.	1.r	.	2.ryy	2.ryy	1.r	.	2.r	.	2.ryy	2.ryy	2.ryy	2.ryy
.	.	.	16d\Jk	16d\Jk	16f/Jk	.	16a-/Jk)	.	.	.	.	.	.	.	.	.	.	.	.	.	.	.	.	.	.	.	.	.	.	.	.	.	.
8E-\)	.	8E-\	8B-/	8B-/	8e-/	.	8g/	.	.	.	.	.	.	.	.	.	.	.	.	.	.	.	.	.	.	.	.	.	.	.	.	.	.
8r	.	8r	8r	8r	8r	.	8r	.	.	.	.	.	.	.	.	.	.	.	.	.	.	.	.	.	.	.	.	.	.	.	.	.	.
4r	.	4r	4r	4r	4r	.	4r	.	.	.	.	.	.	.	.	.	.	.	.	.	.	.	.	.	.	.	.	.	.	.	.	.	.
!	!	!LO:LB:g=original	!	!	!	!	!	!	!	!	!	!	!	!	!	!	!	!	!	!	!	!	!	!	!	!	!	!	!	!	!	!	!
=35	=35	=35	=35	=35	=35	=35	=35	=35	=35	=35	=35	=35	=35	=35	=35	=35	=35	=35	=35	=35	=35	=35	=35	=35	=35	=35	=35	=35	=35	=35	=35	=35	=35
(4BB-/	.	4BB-/	8.f\L	8.f\L	8.d/L	.	8.b-/L	.	2.ryy	2.ryy	.	.	2.r	.	2.ryy	2.ryy	2.ryy	2.ryy	2.ryy	.	.	.	.	2.ryy	2.ryy	.	.	2.r	.	2.ryy	2.ryy	2.ryy	2.ryy
.	.	.	16d\Jk	16d\Jk	16f/Jk	.	16a-/Jk	.	.	.	.	.	.	.	.	.	.	.	.	.	.	.	.	.	.	.	.	.	.	.	.	.	.
8E-/)	.	8E-\	8B-/L	8B-/L	8e-/L	.	8g/L	.	.	.	.	.	.	.	.	.	.	.	.	.	.	.	.	.	.	.	.	.	.	.	.	.	.
8r	.	8r	8B-/J	8B-/J	8e-/J	.	8g/J	.	.	.	.	.	.	.	.	.	.	.	.	.	.	.	.	.	.	.	.	.	.	.	.	.	.
8G\L	.	8G\L	8.B-/L	8.B-/L	8.e-/L	.	8.b-\L	.	.	.	.	.	.	.	.	.	.	.	.	.	.	.	.	.	.	.	.	.	.	.	.	.	.
(8G\J	.	8G\J	.	.	.	.	.	.	.	.	.	.	.	.	.	.	.	.	.	.	.	.	.	.	.	.	.	.	.	.	.	.	.
.	.	.	16B-/Jk	16B-/Jk	16en/Jk	.	16dd-X\Jk	.	.	.	.	.	.	.	.	.	.	.	.	.	.	.	.	.	.	.	.	.	.	.	.	.	.
!	!	!	!	!	!	!	!	!	!	!	!	!	!	!	!	!	!	!	!	!	!	!LO:LB:g=original	!	!	!	!	!	!	!	!	!	!	!
=36	=36	=36	=36	=36	=36	=36	=36	=36	=36	=36	=36	=36	=36	=36	=36	=36	=36	=36	=36	=36	=36	=36	=36	=36	=36	=36	=36	=36	=36	=36	=36	=36	=36
!	!	!LO:TX:t=P:problem=mixedbeam	!	!	!	!	!	!	!	!	!	!	!	!	!	!	!	!	!	!	!	!	!	!	!	!	!	!	!	!	!	!	!
8A-\L)	.	8A-\L	8c/L	8c/L	8f/L	.	8cc\L	.	2.ryy	2.ryy	.	.	2.r	.	2.ryy	2.ryy	2.ryy	2.ryy	2.ryy	4r	.	4r	.	2.ryy	2.ryy	4r	.	4r	.	2.ryy	2.ryy	2.ryy	2.ryy
8A-\J	.	8A-\	8c/J	8c/	8f/	.	8a-\J	.	.	.	.	.	.	.	.	.	.	.	.	.	.	.	.	.	.	.	.	.	.	.	.	.	.
!	!	!	!	!	!	!	!	!	!	!	!	!	!	!	!	!	!	!	!	!	!LO:DY:rj	!	!	!	!	!	!	!	!	!	!	!	!
8B-\L	.	8B-\	8B-/L	8B-/	8e-X/	.	8g/L	.	.	.	.	.	.	.	.	.	.	.	.	(4e-\	pp	(4g\	pp	.	.	(4g/	pp	(4ee-\	p	.	.	.	.
8B-\J	.	8B-\	8B-/	8B-/	8e-/	.	8g/	.	.	.	.	.	.	.	.	.	.	.	.	.	.	.	.	.	.	.	.	.	.	.	.	.	.
8BB-/L	.	8BB-/	8A-/	8A-/	8d/	.	8f/	.	.	.	.	.	.	.	.	.	.	.	.	4B-\)	.	4f\)	.	.	.	4f/)	.	4dd\)	.	.	.	.	.
(8BB-/J	.	8BB-/J	8A-/J	8A-/J	8d/J	.	8f/J	.	.	.	.	.	.	.	.	.	.	.	.	.	.	.	.	.	.	.	.	.	.	.	.	.	.
!LO:LB:g=original	!	!	!	!	!	!	!LO:LB:g=original	!	!	!	!	!	!	!	!	!	!	!	!	!	!	!	!	!	!	!	!	!	!	!	!	!	!
=37	=37	=37	=37	=37	=37	=37	=37	=37	=37	=37	=37	=37	=37	=37	=37	=37	=37	=37	=37	=37	=37	=37	=37	=37	=37	=37	=37	=37	=37	=37	=37	=37	=37
[4E-\)	.	4E-\	4d\	4d\	4f/	.	4a-/	.	2.ryy	2.ryy	0.r	.	2.r	.	2.ryy	2.ryy	2.ryy	2.ryy	2.ryy	(4B-\	.	(4f^<\	.	2.ryy	2.ryy	(4f/	>	(4dd\	>	2.ryy	2.ryy	2.ryy	2.ryy
8E-\]	.	8E-\	8e-\L	8e-\L	8e-/L	.	16g/LL	.	.	.	.	.	.	.	.	.	.	.	.	8e-\)	.	8g\)	.	.	.	8e-/)	]	8ee-\)	]	.	.	.	.
.	.	.	.	.	.	.	16B-/	.	.	.	.	.	.	.	.	.	.	.	.	.	.	.	.	.	.	.	.	.	.	.	.	.	.
!	!	!	!LO:TX:t=P:problem=łamanie linii w takcie	!	!	!	!	!	!	!	!	!	!	!	!	!	!	!	!	!	!	!	!	!	!	!	!	!	!	!	!	!	!
8r	.	8r	8e-\J	8e-\J	8G/J	.	16e-/	.	.	.	.	.	.	.	.	.	.	.	.	8r	.	8r	.	.	.	8r	.	8r	.	.	.	.	.
.	.	.	.	.	.	.	16g/JJ	.	.	.	.	.	.	.	.	.	.	.	.	.	.	.	.	.	.	.	.	.	.	.	.	.	.
!	!	!	!LO:LB:g=original	!	!	!	!	!	!	!	!	!	!	!	!	!	!	!	!	!	!	!	!	!	!	!	!	!	!	!	!	!	!
!LO:TX:t=P:problem=mixedbeam	!	!LO:TX:t=P:problem=mixedbeam	!LO:TX:t=P:problem=mixedbeam	!LO:TX:t=P:problem=mixedbeam	!	!	!	!	!	!	!	!	!	!	!	!	!	!	!	!	!	!	!	!	!	!	!	!	!	!	!	!	!
8GG/L	.	8GG/L	8e-\L	8e-\L	8B-/L	.	16.b-/LL	.	.	.	.	.	.	.	.	.	.	.	.	4r	.	4r	.	.	.	4r	.	4r	.	.	.	.	.
.	.	.	.	.	.	.	32g/K	.	.	.	.	.	.	.	.	.	.	.	.	.	.	.	.	.	.	.	.	.	.	.	.	.	.
8G\J	.	8G\J	8G/J	8G/J	8e-/J 8B-/	.	16.ee-/	.	.	.	.	.	.	.	.	.	.	.	.	.	.	.	.	.	.	.	.	.	.	.	.	.	.
.	.	.	.	.	.	.	32dd/JJk	.	.	.	.	.	.	.	.	.	.	.	.	.	.	.	.	.	.	.	.	.	.	.	.	.	.
=38	=38	=38	=38	=38	=38	=38	=38	=38	=38	=38	=38	=38	=38	=38	=38	=38	=38	=38	=38	=38	=38	=38	=38	=38	=38	=38	=38	=38	=38	=38	=38	=38	=38
!	!	!LO:TX:t=P:problem=mixedbeam	!	!	!	!	!	!	!	!	!	!	!	!	!	!	!	!	!	!	!	!	!	!	!	!	!	!	!	!	!	!	!
8A-\L	f	8A-\L	8A-/L	8A-/L	8e-/L 8c/	.	16.dd\LL	.	2.ryy	2.ryy	.	.	2.r	.	2.ryy	2.ryy	2.ryy	2.ryy	2.ryy	4r	.	4r	.	2.ryy	2.ryy	4r	.	4r	.	2.ryy	2.ryy	2.ryy	2.ryy
.	.	.	.	.	.	.	32cc\K	.	.	.	.	.	.	.	.	.	.	.	.	.	.	.	.	.	.	.	.	.	.	.	.	.	.
!	!LO:DY:t=po	!	!	!	!	!	!	!	!	!	!	!	!	!	!	!	!	!	!	!	!	!	!	!	!	!	!	!	!	!	!	!	!
8A-\J	p	8A-\	8c/J	8c/J	16.g/L	.	16.b-\	.	.	.	.	.	.	.	.	.	.	.	.	.	.	.	.	.	.	.	.	.	.	.	.	.	.
!	!	!	!	!	!LO:TX:t=P:problem=łamanie linii w takcie	!	!	!	!	!	!	!	!	!	!	!	!	!	!	!	!	!	!	!	!	!	!	!	!	!	!	!	!
.	.	.	.	.	32f/JJk	.	32a-\JJk	.	.	.	.	.	.	.	.	.	.	.	.	.	.	.	.	.	.	.	.	.	.	.	.	.	.
!	!	!	!	!	!LO:LB:g=original	!	!	!	!	!	!	!	!	!	!	!	!	!	!	!	!	!	!	!	!	!	!	!	!	!	!	!	!
8B-\L	.	8B-\	8B-/L	8B-/L	8e-/L	.	8g/L	.	.	.	.	.	.	.	.	.	.	.	.	(4e-\	p	(4g\	p	.	.	(4g\	.	(4ee-\	p	.	.	.	.
8B-\J	.	8B-\	8B-/	8B-/	8e-/	.	8g/	.	.	.	.	.	.	.	.	.	.	.	.	.	.	.	.	.	.	.	.	.	.	.	.	.	.
8BB-/L	.	8BB-/	8A-/	8A-/	8d/	.	8f/	.	.	.	.	.	.	.	.	.	.	.	.	4B-/)	.	4f\)	.	.	.	(4a-\)	.	4dd\)	.	.	.	.	.
!	!	!	!	!LO:N:vis=8.	!	!	!	!	!	!	!	!	!	!	!	!	!	!	!	!	!	!	!	!	!	!	!	!	!	!	!	!	!
8BB-/J	.	8BB-/J	8A-/J	8A-/J	8d/J	.	8f/J	.	.	.	.	.	.	.	.	.	.	.	.	.	.	.	.	.	.	.	.	.	.	.	.	.	.
!	!	!	!	!LO:LB:g=original	!	!	!	!	!	!	!	!	!	!	!	!	!	!	!	!LO:LB:g=original	!	!	!	!	!	!LO:LB:g=original	!	!LO:LB:g=original	!	!	!	!	!
=39	=39	=39	=39	=39	=39	=39	=39	=39	=39	=39	=39	=39	=39	=39	=39	=39	=39	=39	=39	=39	=39	=39	=39	=39	=39	=39	=39	=39	=39	=39	=39	=39	=39
!LO:TX:b:i:t=piziccato	!	!	!	!	!	!	!	!	!	!	!	!	!	!	!	!	!	!	!	!	!	!	!	!	!	!	!	!LO:TX:a:i:t=Solo	!	!	!	!	!
8E-\	.	8E-\	4G/	2.b-\	4e-/	.	4e-/	.	2.ryy	2.ryy	.	.	2.r	.	2.ryy	2.ryy	2.ryy	2.ryy	2.ryy	(8E-/	.	8e-\	.	2.ryy	2.ryy	4g\)	.	4ee-\	.	2.ryy	2.ryy	2.ryy	2.ryy
8r	.	8r	.	.	.	.	.	.	.	.	.	.	.	.	.	.	.	.	.	8g\L	.	(8b-\L	.	.	.	.	.	.	.	.	.	.	.
!	!	!	!	!	!	!	!	!	!	!	!	!	!	!	!	!	!	!	!	!	!	!	!	!	!	!LO:TX:b:i:t=dolace	!	!	!	!	!	!	!
!	!	!	!	!	!	!	!	!	!	!	!	!	!	!	!	!	!	!	!	!	!	!	!	!	!	!LO:TX:a:i:t=Solo	!	!	!	!	!	!	!
8E-\	.	8E-\	4r	.	4r	.	4r	.	.	.	.	.	.	.	.	.	.	.	.	8e-\J)	.	8g\J)	.	.	.	16r	.	16r	.	.	.	.	.
!	!	!	!	!	!	!	!	!	!	!	!	!	!	!	!	!	!	!	!	!	!	!	!	!	!	!	!	!LO:TX:t=P:tr=t:global:problem	!	!	!	!	!
.	.	.	.	.	.	.	.	.	.	.	.	.	.	.	.	.	.	.	.	.	.	.	.	.	.	16b-\LL	.	16ee-T\LL	.	.	.	.	.
8r	.	8r	.	.	.	.	.	.	.	.	.	.	.	.	.	.	.	.	.	8r	.	8r	.	.	.	(16ee-\	.	16gg\	>	.	.	.	.
.	.	.	.	.	.	.	.	.	.	.	.	.	.	.	.	.	.	.	.	.	.	.	.	.	.	16dd\JJ	.	(16ff\JJ	.	.	.	.	.
8E-\	.	8E-\	4r	.	4r	.	4r	.	.	.	.	.	.	.	.	.	.	.	.	4r	.	4r	.	.	.	16cc\LL	.	16ee-\LL	.	.	.	.	.
.	.	.	.	.	.	.	.	.	.	.	.	.	.	.	.	.	.	.	.	.	.	.	.	.	.	16b-\	.	16dd\	.	.	.	.	.
8r	.	8r	.	.	.	.	.	.	.	.	.	.	.	.	.	.	.	.	.	.	.	.	.	.	.	16a-\	.	16cc\)	]	.	.	.	.
.	.	.	.	.	.	.	.	.	.	.	.	.	.	.	.	.	.	.	.	.	.	.	.	.	.	16g\JJ)	.	16b-\JJ	.	.	.	.	.
!	!	!LO:LB:g=original	!	!	!	!	!	!	!	!	!	!	!	!	!	!	!	!	!	!	!	!	!	!	!	!	!	!	!	!	!	!	!
=40	=40	=40	=40	=40	=40	=40	=40	=40	=40	=40	=40	=40	=40	=40	=40	=40	=40	=40	=40	=40	=40	=40	=40	=40	=40	=40	=40	=40	=40	=40	=40	=40	=40
!	!	!	!LO:TX:a:t=2.	!	!LO:TX:a:t=2	!	!LO:TX:a:t=2	!	!	!	!	!	!	!	!	!	!	!	!	!	!	!	!	!	!	!	!	!	!	!	!	!	!
8BB-/	.	8BB-/	1.r	8b-\L	1.r	.	1.r	.	2.ryy	2.ryy	.	.	2.r	.	2.ryy	2.ryy	2.ryy	2.ryy	2.ryy	8r	.	8r	.	2.ryy	2.ryy	(8g/L	.	8b-\L	.	2.ryy	2.ryy	2.ryy	2.ryy
8r	.	8r	.	8a-\J	.	.	.	.	.	.	.	.	.	.	.	.	.	.	.	(8f\L	.	(8a-\L	.	.	.	8f/J)	.	8a-\J	.	.	.	.	.
8BB-/	.	8BB-/	.	2a-\	.	.	.	.	.	.	.	.	.	.	.	.	.	.	.	8B-\J)	.	8f\J)	.	.	.	16r	.	16r	.	.	.	.	.
.	.	.	.	.	.	.	.	.	.	.	.	.	.	.	.	.	.	.	.	.	.	.	.	.	.	(16b-\LL	>	(16ddt\LL	.	.	.	.	.
8r	.	8r	.	.	.	.	.	.	.	.	.	.	.	.	.	.	.	.	.	8r	.	8r	.	.	.	16dd\	.	16ff\	.	.	.	.	.
.	.	.	.	.	.	.	.	.	.	.	.	.	.	.	.	.	.	.	.	.	.	.	.	.	.	16cc\JJ	.	16ee-\JJ)	.	.	.	.	.
8BB-/	.	8BB-/	.	.	.	.	.	.	.	.	.	.	.	.	.	.	.	.	.	4r	.	4r	.	.	.	16b-\LL	.	(16dd\LL	>	.	.	.	.
.	.	.	.	.	.	.	.	.	.	.	.	.	.	.	.	.	.	.	.	.	.	.	.	.	.	16a-\	]	16cc\	.	.	.	.	.
8r	.	8r	.	.	.	.	.	.	.	.	.	.	.	.	.	.	.	.	.	.	.	.	.	.	.	16g\)	.	16b-\	.	.	.	.	.
.	.	.	.	.	.	.	.	.	.	.	.	.	.	.	.	.	.	.	.	.	.	.	.	.	.	16f\JJ	.	16a-\JJ)	]	.	.	.	.
!LO:LB:g=original	!	!	!	!	!	!	!	!	!	!	!	!	!	!	!	!	!	!	!	!	!	!	!	!	!	!	!	!	!	!	!	!	!
=41	=41	=41	=41	=41	=41	=41	=41	=41	=41	=41	=41	=41	=41	=41	=41	=41	=41	=41	=41	=41	=41	=41	=41	=41	=41	=41	=41	=41	=41	=41	=41	=41	=41
8E-\	.	8E-\	.	8a-\L	.	.	.	.	2.ryy	2.ryy	0.r	.	2.r	.	2.ryy	2.ryy	2.ryy	2.ryy	2.ryy	8r	.	8r	.	2.ryy	2.ryy	(8f/L	.	(8a-\L	.	2.ryy	2.ryy	2.ryy	2.ryy
8r	.	8r	.	8g\J	.	.	.	.	.	.	.	.	.	.	.	.	.	.	.	(8B-/L	.	(8g\L	.	.	.	8e-/J)	.	8g\J)	.	.	.	.	.
8E-\	.	8E-\	.	16r	.	.	.	.	.	.	.	.	.	.	.	.	.	.	.	8G/J)	.	8e-\J)	.	.	.	16r	.	16r	.	.	.	.	.
.	.	.	.	16b-T\LL	.	.	.	.	.	.	.	.	.	.	.	.	.	.	.	.	.	.	.	.	.	(16g\LL	.	16b-T\LL	.	.	.	.	.
8r	.	8r	.	16ee-\	.	.	.	.	.	.	.	.	.	.	.	.	.	.	.	8r	.	8r	.	.	.	16g\	.	(16ee-\	>	.	.	.	.
.	.	.	.	16dd\JJ	.	.	.	.	.	.	.	.	.	.	.	.	.	.	.	.	.	.	.	.	.	16b-\JJ	>	16dd\JJ	.	.	.	.	.
8E-\	.	8E-\	.	16cc\LL	.	.	.	.	.	.	.	.	.	.	.	.	.	.	.	4r	.	4r	.	.	.	16a-/LL	.	16cc\LL	.	.	.	.	.
.	.	.	.	16b-\	.	.	.	.	.	.	.	.	.	.	.	.	.	.	.	.	.	.	.	.	.	16g/	.	16b-\	.	.	.	.	.
8r	.	8r	.	16a-\	.	.	.	.	.	.	.	.	.	.	.	.	.	.	.	.	.	.	.	.	.	16f/	.	16a-\	]	.	.	.	.
.	.	.	.	16g\JJ	.	.	.	.	.	.	.	.	.	.	.	.	.	.	.	.	.	.	.	.	.	16eX/JJ)	]	16g\JJ)	.	.	.	.	.
!	!	!	!	!	!	!	!	!	!	!	!	!	!	!	!	!	!	!	!	!	!	!	!	!	!	!LO:LB:g=original	!	!	!	!	!	!	!
=42	=42	=42	=42	=42	=42	=42	=42	=42	=42	=42	=42	=42	=42	=42	=42	=42	=42	=42	=42	=42	=42	=42	=42	=42	=42	=42	=42	=42	=42	=42	=42	=42	=42
!LO:TX:t=P:problem=mixedbeam	!	!	!	!	!	!	!	!	!	!	!	!	!	!	!	!	!	!	!	!	!	!	!	!	!	!	!	!	!	!	!	!	!
!LO:TX:b:i:t=arco	!LO:DY:rj:t=po	!LO:TX:t=P:problem=mixedbeam	!	!	!	!	!	!	!	!	!	!	!	!	!	!	!	!	!	!	!	!	!	!	!	!	!	!	!	!	!	!	!
8AA-/L	p	8AA-/L	4c/	16.a-\LL	4f/	.	4a-/	.	2.ryy	2.ryy	.	.	2.r	.	2.ryy	2.ryy	2.ryy	2.ryy	2.ryy	8r	.	8r	.	2.ryy	2.ryy	(16.f/LL	.	16.a-\LL	.	2.ryy	2.ryy	2.ryy	2.ryy
.	.	.	.	32b-\K	.	.	.	.	.	.	.	.	.	.	.	.	.	.	.	.	.	.	.	.	.	32g/K	.	32b-\K	.	.	.	.	.
8A-\J	.	8A-\J	.	16.cc\	.	.	.	.	.	.	.	.	.	.	.	.	.	.	.	(8f\	p	(8f\	.	.	.	16.a-/	.	16.cc\	.	.	.	.	.
.	.	.	.	32a-\JJk	.	.	.	.	.	.	.	.	.	.	.	.	.	.	.	.	.	.	.	.	.	32f/JJk)	.	32a-\JJk	.	.	.	.	.
!	!	!LO:TX:t=P:problem=mixedbeam	!	!	!	!	!	!	!	!	!	!	!	!	!	!	!	!	!	!	!	!	!	!	!	!	!	!	!	!	!	!	!
8B-\L	.	8B-\L	4B-/	4g\	4e-/	.	4g/	.	.	.	.	.	.	.	.	.	.	.	.	4e-\	.	4g\	.	.	.	(4e-/	.	(4g/	.	.	.	.	.
8B-\J	.	8B-\	.	.	.	.	.	.	.	.	.	.	.	.	.	.	.	.	.	.	.	.	.	.	.	.	.	.	.	.	.	.	.
8BB-/L	.	8BB-/	4B-/	4fT\	4d/	.	4f/	.	.	.	.	.	.	.	.	.	.	.	.	4B-\)	.	4f\)	.	.	.	4dt/)	.	4fT/)	.	.	.	.	.
8BB-/J	.	8BB-/J	.	.	.	.	.	.	.	.	.	.	.	.	.	.	.	.	.	.	.	.	.	.	.	.	.	.	.	.	.	.	.
!	!	!	!	!	!	!	!	!	!	!	!	!	!	!	!	!	!	!	!	!	!	!LO:LB:g=original	!	!	!	!	!	!LO:LB:g=original	!	!	!	!	!
=43	=43	=43	=43	=43	=43	=43	=43	=43	=43	=43	=43	=43	=43	=43	=43	=43	=43	=43	=43	=43	=43	=43	=43	=43	=43	=43	=43	=43	=43	=43	=43	=43	=43
!	!LO:DY:t=po	!	!	!	!	!	!	!	!	!	!	!	!	!	!	!	!	!	!	!	!	!	!	!	!	!	!	!	!	!	!	!	!
8E-\	p	8E-\	2.B-/ 2.E-/	4e-\	16e-/LL	.	(16g/LL	.	2.ryy	2.ryy	.	.	2.r	.	2.ryy	2.ryy	2.ryy	2.ryy	2.ryy	4G/	.	4e-\	.	2.ryy	2.ryy	4e-/	.	4e-/	.	2.ryy	2.ryy	2.ryy	2.ryy
.	.	.	.	.	16B-/	.	16e-/	.	.	.	.	.	.	.	.	.	.	.	.	.	.	.	.	.	.	.	.	.	.	.	.	.	.
8r	.	8r	.	.	16G/	.	16B-/	.	.	.	.	.	.	.	.	.	.	.	.	.	.	.	.	.	.	.	.	.	.	.	.	.	.
!	!	!	!	!	!	!	!LO:TX:t=P:problem=łamanie linii w takcie	!	!	!	!	!	!	!	!	!	!	!	!	!	!	!	!	!	!	!	!	!	!	!	!	!	!
.	.	.	.	.	16B-/JJ	.	16e-/JJ)	.	.	.	.	.	.	.	.	.	.	.	.	.	.	.	.	.	.	.	.	.	.	.	.	.	.
!	!	!	!	!	!	!	!LO:LB:g=original	!	!	!	!	!	!	!	!	!	!	!	!	!	!	!	!	!	!	!	!	!	!	!	!	!	!
*	*	*	*	*	*rep	*	*	*	*	*	*	*	*	*	*	*	*	*	*	*	*	*	*	*	*	*	*	*	*	*	*	*	*
8E-\	.	8E-\	.	4e-\	16e-/LL	.	(16g/LL	.	.	.	.	.	.	.	.	.	.	.	.	4r	.	4r	.	.	.	4r	.	4r	.	.	.	.	.
.	.	.	.	.	16B-/	.	16e-/	.	.	.	.	.	.	.	.	.	.	.	.	.	.	.	.	.	.	.	.	.	.	.	.	.	.
8r	.	8r	.	.	16G/	.	16B-/	.	.	.	.	.	.	.	.	.	.	.	.	.	.	.	.	.	.	.	.	.	.	.	.	.	.
.	.	.	.	.	16B-/JJ	.	16e-/JJ	.	.	.	.	.	.	.	.	.	.	.	.	.	.	.	.	.	.	.	.	.	.	.	.	.	.
*	*	*	*	*	*Xrep	*	*	*	*	*	*	*	*	*	*	*	*	*	*	*	*	*	*	*	*	*	*	*	*	*	*	*	*
8E-\	.	8E-\	.	4e-\	16e-/LL	.	16g/LL	.	.	.	.	.	.	.	.	.	.	.	.	4r	.	4r	.	.	.	4r	.	4r	.	.	.	.	.
.	.	.	.	.	16B-/	.	16e-/	.	.	.	.	.	.	.	.	.	.	.	.	.	.	.	.	.	.	.	.	.	.	.	.	.	.
8r	.	8r	.	.	16e-/	.	16g/	.	.	.	.	.	.	.	.	.	.	.	.	.	.	.	.	.	.	.	.	.	.	.	.	.	.
.	.	.	.	.	16g/JJ	.	16b-/JJ)	.	.	.	.	.	.	.	.	.	.	.	.	.	.	.	.	.	.	.	.	.	.	.	.	.	.
!	!	!	!	!	!	!	!	!	!	!	!	!	!	!	!	!	!	!	!	!LO:PB:g=original	!	!	!	!	!	!	!	!	!	!	!	!	!
=44	=44	=44	=44	=44	=44	=44	=44	=44	=44	=44	=44	=44	=44	=44	=44	=44	=44	=44	=44	=44	=44	=44	=44	=44	=44	=44	=44	=44	=44	=44	=44	=44	=44
*	*	*	*	*	*	*	*	*	*	*	*	*	*tremolo	*	*	*	*	*	*	*	*	*	*	*	*	*	*	*	*	*	*	*	*
!	!	!	!	!	!	!	!	!	!	!	!	!	!LO:TX:b:i:t=Solo	!	!	!	!	!	!	!	!	!	!	!	!	!	!	!	!	!	!	!	!
4B-\	.	4B-\	16B-/LL	16B-/LL	4g/	.	(4b-/	.	2.ryy	2.ryy	.	.	(>16GG/L	mf >	2.ryy	2.ryy	2.ryy	2.ryy	2.ryy	4r	.	4r	.	2.ryy	2.ryy	4r	.	4r	.	2.ryy	2.ryy	2.ryy	2.ryy
.	.	.	16An/	16A-/	.	.	.	.	.	.	.	.	16GG/	.	.	.	.	.	.	.	.	.	.	.	.	.	.	.	.	.	.	.	.
.	.	.	16B-/	16B-/	.	.	.	.	.	.	.	.	16GG/	.	.	.	.	.	.	.	.	.	.	.	.	.	.	.	.	.	.	.	.
.	.	.	16A/JJ	16A-/JJ	.	.	.	.	.	.	.	.	16GG/	.	.	.	.	.	.	.	.	.	.	.	.	.	.	.	.	.	.	.	.
8BB-/	.	8BB-/	8B-/	8B-/	16f/LL	.	16a-/LL)	.	.	.	.	.	16GG/	.	.	.	.	.	.	4r	.	4r	.	.	.	16r	.	16r	.	.	.	.	.
.	.	.	.	.	16f/	.	(16a-/	.	.	.	.	.	16GG/	.	.	.	.	.	.	.	.	.	.	.	.	16ff\LL	p	16aa-\LL	p	.	.	.	.
8r	.	8r	8r	8r	16en/	.	16g/	.	.	.	.	.	16GG/	.	.	.	.	.	.	.	.	.	.	.	.	(16eeX\	.	(16gg\	.	.	.	.	.
.	.	.	.	.	16f/JJ	.	16a-/JJ	.	.	.	.	.	16GG/J	.	.	.	.	.	.	.	.	.	.	.	.	16ff\JJ	>	16aa-\JJ	>	.	.	.	.
4r	.	4r	4r	4r	16g/LL	.	16b-/LL	.	.	.	.	.	8GG/)	]	.	.	.	.	.	4BB-/	.	4B-/	.	.	.	16gg\LL	.	16bb-\LL	.	.	.	.	.
.	.	.	.	.	16f/	.	16a-/	.	.	.	.	.	.	.	.	.	.	.	.	.	.	.	.	.	.	16ff\	.	16aa-\	.	.	.	.	.
.	.	.	.	.	16e/	.	16g/	.	.	.	.	.	8r	.	.	.	.	.	.	.	.	.	.	.	.	16ee\)	]	16gg\)	]	.	.	.	.
.	.	.	.	.	16f/JJ	.	16a-/JJ)	.	.	.	.	.	.	.	.	.	.	.	.	.	.	.	.	.	.	16ff\JJ	.	16aa-\JJ	.	.	.	.	.
!LO:LB:g=original	!	!	!LO:LB:g=original	!LO:LB:g=original	!LO:LB:g=original	!	!	!	!	!	!	!	!	!	!	!	!	!	!	!	!	!	!	!	!	!	!	!	!	!	!	!	!
=45	=45	=45	=45	=45	=45	=45	=45	=45	=45	=45	=45	=45	=45	=45	=45	=45	=45	=45	=45	=45	=45	=45	=45	=45	=45	=45	=45	=45	=45	=45	=45	=45	=45
!	!	!	!	!	!	!	!	!	!	!	!	!	!LO:TX:a:t=1.	!	!	!	!	!	!	!	!	!	!	!	!	!	!	!	!	!	!	!	!
8BB-/	.	8BB-/	2.B-/ 2.F/	2.B-/	16d/KL	.	(16f/LL	.	2.ryy	2.ryy	0.r	.	2.r	.	2.ryy	2.ryy	2.ryy	2.ryy	2.ryy	4BB-/	.	4B-/	.	2.ryy	2.ryy	4dd\	.	4ff\	.	2.ryy	2.ryy	2.ryy	2.ryy
.	.	.	.	.	8B-/	.	16d/	.	.	.	.	.	.	.	.	.	.	.	.	.	.	.	.	.	.	.	.	.	.	.	.	.	.
8r	.	8r	.	.	.	.	16B-/	.	.	.	.	.	.	.	.	.	.	.	.	.	.	.	.	.	.	.	.	.	.	.	.	.	.
.	.	.	.	.	16B-/Jk	.	16d/JJ	.	.	.	.	.	.	.	.	.	.	.	.	.	.	.	.	.	.	.	.	.	.	.	.	.	.
8BB-/	.	8BB-/	.	.	16d/KL	.	16f/LL	.	.	.	.	.	.	.	.	.	.	.	.	4r	.	4r	.	.	.	4r	.	4r	.	.	.	.	.
.	.	.	.	.	8B-/	.	16d/	.	.	.	.	.	.	.	.	.	.	.	.	.	.	.	.	.	.	.	.	.	.	.	.	.	.
8r	.	8r	.	.	.	.	16B-/	.	.	.	.	.	.	.	.	.	.	.	.	.	.	.	.	.	.	.	.	.	.	.	.	.	.
.	.	.	.	.	16B-/Jk	.	16d/JJ	.	.	.	.	.	.	.	.	.	.	.	.	.	.	.	.	.	.	.	.	.	.	.	.	.	.
8BB-/	.	8BB-/	.	.	16d/LL	.	16f/LL	.	.	.	.	.	.	.	.	.	.	.	.	4r	.	4r	.	.	.	4r	.	4r	.	.	.	.	.
.	.	.	.	.	16B-/	.	16d/	.	.	.	.	.	.	.	.	.	.	.	.	.	.	.	.	.	.	.	.	.	.	.	.	.	.
8r	.	8r	.	.	16d/	.	16f/	.	.	.	.	.	.	.	.	.	.	.	.	.	.	.	.	.	.	.	.	.	.	.	.	.	.
.	.	.	.	.	16f/JJ	.	16a-/JJ)	.	.	.	.	.	.	.	.	.	.	.	.	.	.	.	.	.	.	.	.	.	.	.	.	.	.
!	!	!LO:LB:g=original	!	!	!	!	!	!	!	!	!	!	!	!	!	!	!	!	!	!	!	!	!	!	!	!	!	!	!	!	!	!	!
=46	=46	=46	=46	=46	=46	=46	=46	=46	=46	=46	=46	=46	=46	=46	=46	=46	=46	=46	=46	=46	=46	=46	=46	=46	=46	=46	=46	=46	=46	=46	=46	=46	=46
*	*	*	*	*	*	*	*	*	*	*	*	*	*2\right	*	*	*	*	*	*	*	*	*	*	*	*	*	*	*	*	*	*	*	*
!	!	!	!	!	!	!	!	!	!	!	!	!	!LO:TX:b:i:t=Solo	!	!	!	!	!	!	!	!	!	!	!	!	!	!	!	!	!	!	!	!
4E-\	.	4E-\	16E-/LL	16E-/LL	4f/	.	(4a-/	.	2.ryy	2.ryy	.	.	(16C\L	mf >	2.ryy	2.ryy	2.ryy	2.ryy	2.ryy	4r	.	4r	.	2.ryy	2.ryy	(4ff\	.	(4aa-\	p	2.ryy	2.ryy	2.ryy	2.ryy
.	.	.	16D/	16D/	.	.	.	.	.	.	.	.	16C\	.	.	.	.	.	.	.	.	.	.	.	.	.	.	.	.	.	.	.	.
.	.	.	16E-/	16E-/	.	.	.	.	.	.	.	.	16C\	.	.	.	.	.	.	.	.	.	.	.	.	.	.	.	.	.	.	.	.
.	.	.	16D/JJ	16D/JJ	.	.	.	.	.	.	.	.	16C\	.	.	.	.	.	.	.	.	.	.	.	.	.	.	.	.	.	.	.	.
8EE-/	.	8EE-/	16E-/LL	16E-/LL	8e-/L	.	8g/L)	.	.	.	.	.	16C\	.	.	.	.	.	.	4r	.	4r	.	.	.	8ee-\)	.	8gg\)	.	.	.	.	.
.	.	.	16D/	16D/	.	.	.	.	.	.	.	.	16C\	.	.	.	.	.	.	.	.	.	.	.	.	.	.	.	.	.	.	.	.
8r	.	8r	16E-/	16E-/	8e-/J	.	8g/J	.	.	.	.	.	16C\	.	.	.	.	.	.	.	.	.	.	.	.	8r	.	8r	.	.	.	.	.
.	.	.	16D/JJ	16D/JJ	.	.	.	.	.	.	.	.	16C\J	.	.	.	.	.	.	.	.	.	.	.	.	.	.	.	.	.	.	.	.
!	!	!	!	!	!	!	!	!	!	!	!	!	!	!	!	!	!	!	!	!	!LO:DY:rj	!	!	!	!	!	!	!	!	!	!	!	!
4E-^<\	.	4E-\	16E-/LL	16E-/LL	8.g/L	.	(8.b-\L	.	.	.	.	.	8C\)	]	.	.	.	.	.	4BB-/	p	4A-/	.	.	.	4r	.	4r	.	.	.	.	.
.	.	.	16F/	16F/	.	.	.	.	.	.	.	.	.	.	.	.	.	.	.	.	.	.	.	.	.	.	.	.	.	.	.	.	.
.	.	.	16G/	16G/	.	.	.	.	.	.	.	.	8r	.	.	.	.	.	.	.	.	.	.	.	.	.	.	.	.	.	.	.	.
.	.	.	16A-/JJ	16A-/JJ	16g/Jk	.	16ee-\Jk)	.	.	.	.	.	.	.	.	.	.	.	.	.	.	.	.	.	.	.	.	.	.	.	.	.	.
!	!	!	!	!	!	!	!LO:LB:g=original	!	!	!	!	!	!LO:LB;g=original	!	!	!	!	!	!	!	!	!	!	!	!	!LO:LB:g=original	!	!	!	!	!	!	!
=47	=47	=47	=47	=47	=47	=47	=47	=47	=47	=47	=47	=47	=47	=47	=47	=47	=47	=47	=47	=47	=47	=47	=47	=47	=47	=47	=47	=47	=47	=47	=47	=47	=47
!	!	!	!	!	!	!	!	!	!	!	!	!	!LO:TX:a:t=25	!	!	!	!	!	!	!	!	!	!	!	!	!LO:TX:a:t=13.	!	!LO:TX:a:t=13.	!	!	!	!	!
4F\	.	4F\	16B-/LL	16B-/LL	8r	.	8r	.	2.ryy	2.ryy	.	.	2.r	.	2.ryy	2.ryy	2.ryy	2.ryy	2.ryy	[2.BB-/	.	[2.B-/	.	2.ryy	2.ryy	2.r	.	2.r	.	2.ryy	2.ryy	2.ryy	2.ryy
.	.	.	16An/	16An/	.	.	.	.	.	.	.	.	.	.	.	.	.	.	.	.	.	.	.	.	.	.	.	.	.	.	.	.	.
.	.	.	16B-/	16B-/	4a-/	.	(8ee-\L	.	.	.	.	.	.	.	.	.	.	.	.	.	.	.	.	.	.	.	.	.	.	.	.	.	.
.	.	.	16A/JJ	16A/JJ	.	.	.	.	.	.	.	.	.	.	.	.	.	.	.	.	.	.	.	.	.	.	.	.	.	.	.	.	.
8F\	.	8F\	16B-/LL	16B-/LL	.	.	8dd\	.	.	.	.	.	.	.	.	.	.	.	.	.	.	.	.	.	.	.	.	.	.	.	.	.	.
.	.	.	16A/	16A/	.	.	.	.	.	.	.	.	.	.	.	.	.	.	.	.	.	.	.	.	.	.	.	.	.	.	.	.	.
8r	.	8r	16B-/	16B-/	8f/	.	8b-\J)	.	.	.	.	.	.	.	.	.	.	.	.	.	.	.	.	.	.	.	.	.	.	.	.	.	.
.	.	.	16A/JJ	16A/JJ	.	.	.	.	.	.	.	.	.	.	.	.	.	.	.	.	.	.	.	.	.	.	.	.	.	.	.	.	.
4BB-^/	.	4BB-/	16B-/LL	16B-/LL	8.a-/L	.	8.dd\L	.	.	.	.	.	.	.	.	.	.	.	.	.	.	.	.	.	.	.	.	.	.	.	.	.	.
.	.	.	16c/	16c/	.	.	.	.	.	.	.	.	.	.	.	.	.	.	.	.	.	.	.	.	.	.	.	.	.	.	.	.	.
.	.	.	16d/	16d/	.	.	.	.	.	.	.	.	.	.	.	.	.	.	.	.	.	.	.	.	.	.	.	.	.	.	.	.	.
.	.	.	16B-/JJ	16B-/JJ	16a-/Jk	.	16ff\Jk	.	.	.	.	.	.	.	.	.	.	.	.	.	.	.	.	.	.	.	.	.	.	.	.	.	.
=48	=48	=48	=48	=48	=48	=48	=48	=48	=48	=48	=48	=48	=48	=48	=48	=48	=48	=48	=48	=48	=48	=48	=48	=48	=48	=48	=48	=48	=48	=48	=48	=48	=48
4E-\	.	4E-\	16E-/LL	16E-/LL	8.a-/L	.	(8.ff\L	.	2.ryy	2.ryy	.	.	2.r	.	2.ryy	2.ryy	2.ryy	2.ryy	2.ryy	4BB-/]	.	4B-/]	.	2.ryy	2.ryy	2.r	.	2.r	.	2.ryy	2.ryy	2.ryy	2.ryy
.	.	.	16D/	16D/	.	.	.	.	.	.	.	.	.	.	.	.	.	.	.	.	.	.	.	.	.	.	.	.	.	.	.	.	.
.	.	.	16E-/	16E-/	.	.	.	.	.	.	.	.	.	.	.	.	.	.	.	.	.	.	.	.	.	.	.	.	.	.	.	.	.
.	.	.	16D/JJ	16D/JJ	16g/Jk	.	16ee-\Jk)	.	.	.	.	.	.	.	.	.	.	.	.	.	.	.	.	.	.	.	.	.	.	.	.	.	.
*	*	*	*rep	*	*	*	*	*	*	*	*	*	*	*	*	*	*	*	*	*	*	*	*	*	*	*	*	*	*	*	*	*	*
8E-\	.	8E-\	16E-/LL	16E-/LL	8g/	.	8ee-\	.	.	.	.	.	.	.	.	.	.	.	.	4r	.	4r	.	.	.	.	.	.	.	.	.	.	.
.	.	.	16D/	16D/	.	.	.	.	.	.	.	.	.	.	.	.	.	.	.	.	.	.	.	.	.	.	.	.	.	.	.	.	.
8r	.	8r	16E-/	16E-/	8r	.	8r	.	.	.	.	.	.	.	.	.	.	.	.	.	.	.	.	.	.	.	.	.	.	.	.	.	.
!	!	!	!LO:TX:t=P:problem=łamanie linii w takcie	!	!	!	!	!	!	!	!	!	!	!	!	!	!	!	!	!	!	!	!	!	!	!	!	!	!	!	!	!	!
.	.	.	16D/JJ	16D/JJ	.	.	.	.	.	.	.	.	.	.	.	.	.	.	.	.	.	.	.	.	.	.	.	.	.	.	.	.	.
*	*	*	*Xrep	*	*	*	*	*	*	*	*	*	*	*	*	*	*	*	*	*	*	*	*	*	*	*	*	*	*	*	*	*	*
!	!	!	!LO:LB:g=original	!	!	!	!	!	!	!	!	!	!	!	!	!	!	!	!	!	!LO:DY:rj	!	!	!	!	!	!	!	!	!	!	!	!
4C^/	.	4C/	16E-/LL	16E-/LL	8.g/L	.	(8.ee-\L	.	.	.	.	.	.	.	.	.	.	.	.	4G/	p	4g\	p	.	.	.	.	.	.	.	.	.	.
.	.	.	16D/	16D/	.	.	.	.	.	.	.	.	.	.	.	.	.	.	.	.	.	.	.	.	.	.	.	.	.	.	.	.	.
.	.	.	16E-/	16E-/	.	.	.	.	.	.	.	.	.	.	.	.	.	.	.	.	.	.	.	.	.	.	.	.	.	.	.	.	.
.	.	.	16F/JJ	16F/JJ	16e-/Jk	.	16cc\Jk)	.	.	.	.	.	.	.	.	.	.	.	.	.	.	.	.	.	.	.	.	.	.	.	.	.	.
!	!	!	!	!LO:LB:g=original	!	!	!	!	!	!	!	!	!	!	!	!	!	!	!	!	!	!	!	!	!	!	!	!	!	!	!	!	!
=49	=49	=49	=49	=49	=49	=49	=49	=49	=49	=49	=49	=49	=49	=49	=49	=49	=49	=49	=49	=49	=49	=49	=49	=49	=49	=49	=49	=49	=49	=49	=49	=49	=49
4G\	.	4G\	16G/LL	16G/LL	8.e-/L	.	(8.cc\L	.	2.ryy	2.ryy	0.r	.	2.r	.	2.ryy	2.ryy	2.ryy	2.ryy	2.ryy	2.G/	.	[2.G/	.	2.ryy	2.ryy	2.r	.	2.r	.	2.ryy	2.ryy	2.ryy	2.ryy
.	.	.	16F#X/	16F#X/	.	.	.	.	.	.	.	.	.	.	.	.	.	.	.	.	.	.	.	.	.	.	.	.	.	.	.	.	.
.	.	.	16G/	16G/	.	.	.	.	.	.	.	.	.	.	.	.	.	.	.	.	.	.	.	.	.	.	.	.	.	.	.	.	.
!	!	!	!	!	!LO:TX:t=P:problem=łamanie linii w takcie	!	!	!	!	!	!	!	!	!	!	!	!	!	!	!	!	!	!	!	!	!	!	!	!	!	!	!	!
.	.	.	16F#/JJ	16F#/JJ	16d/Jk	.	16bn\Jk)	.	.	.	.	.	.	.	.	.	.	.	.	.	.	.	.	.	.	.	.	.	.	.	.	.	.
!	!	!	!	!	!LO:LB:g=original	!	!	!	!	!	!	!	!	!	!	!	!	!	!	!	!	!	!	!	!	!	!	!	!	!	!	!	!
8GG/	.	8GG/	16G/LL	16G/LL	8d/	.	8b\	.	.	.	.	.	.	.	.	.	.	.	.	.	.	.	.	.	.	.	.	.	.	.	.	.	.
.	.	.	16F#/	16F#/	.	.	.	.	.	.	.	.	.	.	.	.	.	.	.	.	.	.	.	.	.	.	.	.	.	.	.	.	.
8r	.	8r	16G/	16G/	8r	.	8r	.	.	.	.	.	.	.	.	.	.	.	.	.	.	.	.	.	.	.	.	.	.	.	.	.	.
.	.	.	16Bn/JJ	16Bn/JJ	.	.	.	.	.	.	.	.	.	.	.	.	.	.	.	.	.	.	.	.	.	.	.	.	.	.	.	.	.
4BBn^/	.	4BBn/	16d\LL	16d\LL	8.a-/L	.	(8.ff\L	.	.	.	.	.	.	.	.	.	.	.	.	.	.	.	.	.	.	.	.	.	.	.	.	.	.
.	.	.	16c#X\	16c#X\	.	.	.	.	.	.	.	.	.	.	.	.	.	.	.	.	.	.	.	.	.	.	.	.	.	.	.	.	.
.	.	.	16d\	16d\	.	.	.	.	.	.	.	.	.	.	.	.	.	.	.	.	.	.	.	.	.	.	.	.	.	.	.	.	.
.	.	.	16B\JJ	16B\JJ	16f/Jk	.	16dd\Jk)	.	.	.	.	.	.	.	.	.	.	.	.	.	.	.	.	.	.	.	.	.	.	.	.	.	.
!LO:LB:g=original	!	!	!	!	!	!	!	!	!	!	!	!	!	!	!	!	!	!	!	!	!	!	!	!	!	!	!	!	!	!	!	!	!
=50	=50	=50	=50	=50	=50	=50	=50	=50	=50	=50	=50	=50	=50	=50	=50	=50	=50	=50	=50	=50	=50	=50	=50	=50	=50	=50	=50	=50	=50	=50	=50	=50	=50
4C/	.	4C/	16c/LL	4c/	8.f/L	.	(8.dd\L	.	2.ryy	2.ryy	.	.	2.r	.	2.ryy	2.ryy	2.ryy	2.ryy	2.ryy	[4G/	.	4G/_	.	2.ryy	2.ryy	2.r	.	2.r	.	2.ryy	2.ryy	2.ryy	2.ryy
.	.	.	16Bn/	.	.	.	.	.	.	.	.	.	.	.	.	.	.	.	.	.	.	.	.	.	.	.	.	.	.	.	.	.	.
.	.	.	16c/	.	.	.	.	.	.	.	.	.	.	.	.	.	.	.	.	.	.	.	.	.	.	.	.	.	.	.	.	.	.
.	.	.	16B/JJ	.	16e-/Jk	.	16cc\Jk)	.	.	.	.	.	.	.	.	.	.	.	.	.	.	.	.	.	.	.	.	.	.	.	.	.	.
8C/	.	8C/	16c/LL	8c/	8e-/L	.	8cc\L	.	.	.	.	.	.	.	.	.	.	.	.	8G/]	.	8G/]	.	.	.	.	.	.	.	.	.	.	.
.	.	.	16B/	.	.	.	.	.	.	.	.	.	.	.	.	.	.	.	.	.	.	.	.	.	.	.	.	.	.	.	.	.	.
8r	.	8r	16c/	8r	8e-/	.	8cc\	.	.	.	.	.	.	.	.	.	.	.	.	8r	.	8r	.	.	.	.	.	.	.	.	.	.	.
.	.	.	16B/JJ	.	.	.	.	.	.	.	.	.	.	.	.	.	.	.	.	.	.	.	.	.	.	.	.	.	.	.	.	.	.
4c^<\	.	4c\	16c/LL	4cc\	8g/	.	8ee-\	.	.	.	.	.	.	.	.	.	.	.	.	4r	.	4r	.	.	.	.	.	.	.	.	.	.	.
.	.	.	16G/	.	.	.	.	.	.	.	.	.	.	.	.	.	.	.	.	.	.	.	.	.	.	.	.	.	.	.	.	.	.
.	.	.	16E-/	.	8g/J	.	8ee-\J	.	.	.	.	.	.	.	.	.	.	.	.	.	.	.	.	.	.	.	.	.	.	.	.	.	.
.	.	.	16C/JJ	.	.	.	.	.	.	.	.	.	.	.	.	.	.	.	.	.	.	.	.	.	.	.	.	.	.	.	.	.	.
=51	=51	=51	=51	=51	=51	=51	=51	=51	=51	=51	=51	=51	=51	=51	=51	=51	=51	=51	=51	=51	=51	=51	=51	=51	=51	=51	=51	=51	=51	=51	=51	=51	=51
*	*	*2\right	*	*	*	*	*2\right	*	*	*	*	*	*	*	*	*	*	*	*	*	*	*	*	*	*	*	*	*	*	*	*	*	*
!	!	!	!	!	!	!	!	!	!	!	!	!	!	!	!	!	!	!	!	!LO:TX:a:t=5.	!	!LO:TX:a:t=5	!	!	!	!	!	!	!	!	!	!	!
2Bn\	fp	2Bn\	16G/LL	2bn\	2f/	.	(2dd\	.	2.ryy	2.ryy	.	.	2.r	.	2.ryy	2.ryy	2.ryy	2.ryy	2.ryy	0.r	.	0.r	.	2.ryy	2.ryy	2.r	.	2.r	.	2.ryy	2.ryy	2.ryy	2.ryy
.	.	.	16A-/	.	.	.	.	.	.	.	.	.	.	.	.	.	.	.	.	.	.	.	.	.	.	.	.	.	.	.	.	.	.
.	.	.	16G/	.	.	.	.	.	.	.	.	.	.	.	.	.	.	.	.	.	.	.	.	.	.	.	.	.	.	.	.	.	.
!	!	!	!LO:TX:t=P:problem=łamanie linii w takcie	!	!	!	!	!	!	!	!	!	!	!	!	!	!	!	!	!	!	!	!	!	!	!	!	!	!	!	!	!	!
.	.	.	16A-/JJ	.	.	.	.	.	.	.	.	.	.	.	.	.	.	.	.	.	.	.	.	.	.	.	.	.	.	.	.	.	.
!	!	!	!LO:LB:g=original	!	!	!	!	!	!	!	!	!	!	!	!	!	!	!	!	!	!	!	!	!	!	!	!	!	!	!	!	!	!
.	.	.	16G/LL	.	.	.	.	.	.	.	.	.	.	.	.	.	.	.	.	.	.	.	.	.	.	.	.	.	.	.	.	.	.
.	.	.	16A-/	.	.	.	.	.	.	.	.	.	.	.	.	.	.	.	.	.	.	.	.	.	.	.	.	.	.	.	.	.	.
.	.	.	16G/	.	.	.	.	.	.	.	.	.	.	.	.	.	.	.	.	.	.	.	.	.	.	.	.	.	.	.	.	.	.
.	.	.	16A-/JJ	.	.	.	.	.	.	.	.	.	.	.	.	.	.	.	.	.	.	.	.	.	.	.	.	.	.	.	.	.	.
!LO:TX:t=P:problem=mixedbeam	!	!LO:TX:t=P:problem=mixedbeam	!	!	!	!	!	!	!	!	!	!	!	!	!	!	!	!	!	!	!	!	!	!	!	!	!	!	!	!	!	!	!
8.c\L	.	8.c\L	16G/LL	4cc\	4e-/	.	4cc\)	.	.	.	.	.	.	.	.	.	.	.	.	.	.	.	.	.	.	.	.	.	.	.	.	.	.
.	.	.	16A-/	.	.	.	.	.	.	.	.	.	.	.	.	.	.	.	.	.	.	.	.	.	.	.	.	.	.	.	.	.	.
.	.	.	16G/	.	.	.	.	.	.	.	.	.	.	.	.	.	.	.	.	.	.	.	.	.	.	.	.	.	.	.	.	.	.
16C/Jk	.	16C/Jk	16A-/JJ	.	.	.	.	.	.	.	.	.	.	.	.	.	.	.	.	.	.	.	.	.	.	.	.	.	.	.	.	.	.
!	!	!	!	!	!	!	!LO:LB:g=original	!	!	!	!	!	!	!	!	!	!	!	!	!	!	!	!	!	!	!	!	!	!	!	!	!	!
=52	=52	=52	=52	=52	=52	=52	=52	=52	=52	=52	=52	=52	=52	=52	=52	=52	=52	=52	=52	=52	=52	=52	=52	=52	=52	=52	=52	=52	=52	=52	=52	=52	=52
!	!	!LO:TX:t=P:problem=łamanie linii w takcie	!	!	!	!	!	!	!	!	!	!	!	!	!	!	!	!	!	!	!	!	!	!	!	!	!	!	!	!	!	!	!
4G\	.	4G\	16G/LL	4g\	4e-/	.	4cc\	.	2.ryy	2.ryy	.	.	2.r	.	2.ryy	2.ryy	2.ryy	2.ryy	2.ryy	.	.	.	.	2.ryy	2.ryy	2.r	.	2.r	.	2.ryy	2.ryy	2.ryy	2.ryy
.	.	.	16F#X/	.	.	.	.	.	.	.	.	.	.	.	.	.	.	.	.	.	.	.	.	.	.	.	.	.	.	.	.	.	.
.	.	.	16G/	.	.	.	.	.	.	.	.	.	.	.	.	.	.	.	.	.	.	.	.	.	.	.	.	.	.	.	.	.	.
.	.	.	16F#/JJ	.	.	.	.	.	.	.	.	.	.	.	.	.	.	.	.	.	.	.	.	.	.	.	.	.	.	.	.	.	.
!	!	!LO:LB:g=original	!	!	!	!	!	!	!	!	!	!	!	!	!	!	!	!	!	!	!	!	!	!	!	!	!	!	!	!	!	!	!
!	!	!	!	!LO:TX:b:i:t=Volti Subitto	!	!	!	!	!	!	!	!	!	!	!	!	!	!	!	!	!	!	!	!	!	!	!	!	!	!	!	!	!
(8G\L	.	8G\L	8G/L	8g\L	4d/	.	4bn\	.	.	.	.	.	.	.	.	.	.	.	.	.	.	.	.	.	.	.	.	.	.	.	.	.	.
8F\	.	8F\	8Fn/	8f\	.	.	.	.	.	.	.	.	.	.	.	.	.	.	.	.	.	.	.	.	.	.	.	.	.	.	.	.	.
8E-\	.	8E-\	8E-/	8e-\	4r	.	4r	.	.	.	.	.	.	.	.	.	.	.	.	.	.	.	.	.	.	.	.	.	.	.	.	.	.
8D\J)	.	8D\J	8D/J	8d\J	.	.	.	.	.	.	.	.	.	.	.	.	.	.	.	.	.	.	.	.	.	.	.	.	.	.	.	.	.
!	!	!	!	!LO:PB:g=original	!	!	!	!	!	!	!	!	!	!	!	!	!	!	!	!	!	!	!	!	!	!	!	!	!	!	!	!	!
=53	=53	=53	=53	=53	=53	=53	=53	=53	=53	=53	=53	=53	=53	=53	=53	=53	=53	=53	=53	=53	=53	=53	=53	=53	=53	=53	=53	=53	=53	=53	=53	=53	=53
!	!	!	!	!LO:TX:t=P:problem=brak źródła do końca	!	!	!	!	!	!	!	!	!	!	!	!	!	!	!	!	!	!	!	!	!	!	!	!	!	!	!	!	!
8C/	pp	8C/	2G/	2.ryy	8r	.	8r	.	2.ryy	2.ryy	2ee-\	Re-	2.r	.	2.ryy	2.ryy	2.ryy	2.ryy	2.ryy	.	.	.	.	2.ryy	2.ryy	2.r	.	2.r	.	2.ryy	2.ryy	2.ryy	2.ryy
!	!	!	!	!	!	!	!	!LO:DY:rj	!	!	!	!	!	!	!	!	!	!	!	!	!	!	!	!	!	!	!	!	!	!	!	!	!
8r	.	8r	.	.	8g/L	.	8ee-\L	pp	.	.	.	.	.	.	.	.	.	.	.	.	.	.	.	.	.	.	.	.	.	.	.	.	.
8E-\	.	8E-\	.	.	8g/	.	8ee-\	.	.	.	.	.	.	.	.	.	.	.	.	.	.	.	.	.	.	.	.	.	.	.	.	.	.
8r	.	8r	.	.	8g/	.	8ee-\	.	.	.	.	.	.	.	.	.	.	.	.	.	.	.	.	.	.	.	.	.	.	.	.	.	.
8G\	.	8G\	4Bn/	.	8f/	.	8dd\	.	.	.	4dd\	-cor-	.	.	.	.	.	.	.	.	.	.	.	.	.	.	.	.	.	.	.	.	.
8r	.	8r	.	.	8f/J	.	8dd\J	.	.	.	.	.	.	.	.	.	.	.	.	.	.	.	.	.	.	.	.	.	.	.	.	.	.
!LO:LB:g=original	!	!	!	!	!	!	!	!	!	!	!LO:LB:g=original	!	!	!	!	!	!	!	!	!	!	!	!	!	!	!	!	!	!	!	!	!	!
=54	=54	=54	=54	=54	=54	=54	=54	=54	=54	=54	=54	=54	=54	=54	=54	=54	=54	=54	=54	=54	=54	=54	=54	=54	=54	=54	=54	=54	=54	=54	=54	=54	=54
.	.	.	.	.	.	.	.	.	.	.	8qee-/	.	.	.	.	.	.	.	.	.	.	.	.	.	.	.	.	.	.	.	.	.	.
8c\	.	8c\	4Bn/	2.ryy	4f/	.	(4dd\	.	2.ryy	2.ryy	4dd\	-da-	2.r	.	2.ryy	2.ryy	2.ryy	2.ryy	2.ryy	.	.	.	.	2.ryy	2.ryy	2.r	.	2.r	.	2.ryy	2.ryy	2.ryy	2.ryy
8r	.	8r	.	.	.	.	.	.	.	.	.	.	.	.	.	.	.	.	.	.	.	.	.	.	.	.	.	.	.	.	.	.	.
8C/	.	8C/	8c/	.	8e-/	.	8cc\)	.	.	.	4cc\	-re	.	.	.	.	.	.	.	.	.	.	.	.	.	.	.	.	.	.	.	.	.
8r	.	8r	8r	.	8r	.	8r	.	.	.	.	.	.	.	.	.	.	.	.	.	.	.	.	.	.	.	.	.	.	.	.	.	.
4r	.	4r	4r	.	4r	.	4r	.	.	.	4r	.	.	.	.	.	.	.	.	.	.	.	.	.	.	.	.	.	.	.	.	.	.
!	!	!	!	!	!LO:LB:g=original	!	!	!	!	!	!	!	!	!	!	!	!	!	!	!	!	!	!	!	!	!	!	!	!	!	!	!	!
=55	=55	=55	=55	=55	=55	=55	=55	=55	=55	=55	=55	=55	=55	=55	=55	=55	=55	=55	=55	=55	=55	=55	=55	=55	=55	=55	=55	=55	=55	=55	=55	=55	=55
8G\	.	8G\	2.G/	2.ryy	8r	.	8r	.	2.ryy	2.ryy	2ff\	Je-	2.r	.	2.ryy	2.ryy	2.ryy	2.ryy	2.ryy	2.r	.	2.r	.	2.ryy	2.ryy	2.r	.	2.r	.	2.ryy	2.ryy	2.ryy	2.ryy
8r	.	8r	.	.	8dd\L	.	8ff\L	.	.	.	.	.	.	.	.	.	.	.	.	.	.	.	.	.	.	.	.	.	.	.	.	.	.
8Bn\	.	8Bn\	.	.	8dd\	.	8ff\	.	.	.	.	.	.	.	.	.	.	.	.	.	.	.	.	.	.	.	.	.	.	.	.	.	.
8r	.	8r	.	.	8dd\	.	8ff\	.	.	.	.	.	.	.	.	.	.	.	.	.	.	.	.	.	.	.	.	.	.	.	.	.	.
8c\L	.	8c\L	.	.	8cc\	.	8ee-\	.	.	.	8ee-\L	.	.	.	.	.	.	.	.	.	.	.	.	.	.	.	.	.	.	.	.	.	.
.	.	.	.	.	.	.	.	.	.	.	32qqff/LLL	.	.	.	.	.	.	.	.	.	.	.	.	.	.	.	.	.	.	.	.	.	.
.	.	.	.	.	.	.	.	.	.	.	32qqee-/	.	.	.	.	.	.	.	.	.	.	.	.	.	.	.	.	.	.	.	.	.	.
.	.	.	.	.	.	.	.	.	.	.	32qqdd/	.	.	.	.	.	.	.	.	.	.	.	.	.	.	.	.	.	.	.	.	.	.
.	.	.	.	.	.	.	.	.	.	.	32qqee-/JJJ	.	.	.	.	.	.	.	.	.	.	.	.	.	.	.	.	.	.	.	.	.	.
8C\J	.	8C\J	.	.	8cc\J	.	8ee-\J	.	.	.	16gg\L	-su	.	.	.	.	.	.	.	.	.	.	.	.	.	.	.	.	.	.	.	.	.
.	.	.	.	.	.	.	.	.	.	.	16ff\JJ	.	.	.	.	.	.	.	.	.	.	.	.	.	.	.	.	.	.	.	.	.	.
!	!	!	!LO:LB:g=original	!	!	!	!	!	!	!	!	!	!	!	!	!	!	!	!	!LO:LB:g=original	!	!LO:LB:g=original	!	!	!	!	!	!	!	!	!	!	!
=56	=56	=56	=56	=56	=56	=56	=56	=56	=56	=56	=56	=56	=56	=56	=56	=56	=56	=56	=56	=56	=56	=56	=56	=56	=56	=56	=56	=56	=56	=56	=56	=56	=56
4G\	.	4G\	4G/	2.ryy	4cc\	.	(4ee-\	.	2.ryy	2.ryy	4ee-\	pi-	2.r	.	2.ryy	2.ryy	2.ryy	2.ryy	2.ryy	4r	.	4r	.	2.ryy	2.ryy	2.r	.	2.r	.	2.ryy	2.ryy	2.ryy	2.ryy
8GG/	.	8GG/	8G/L	.	8bn\L	.	8.dd\L)	.	.	.	8dd\	-e	.	.	.	.	.	.	.	8r	.	8r	.	.	.	.	.	.	.	.	.	.	.
8r	.	8r	8G/J	.	8g\J	.	.	.	.	.	8r	.	.	.	.	.	.	.	.	8G/	.	8G/	.	.	.	.	.	.	.	.	.	.	.
.	.	.	.	.	.	.	16b-\Jk	.	.	.	.	.	.	.	.	.	.	.	.	.	.	.	.	.	.	.	.	.	.	.	.	.	.
4Bn^<\	.	4Bn\	4G/	.	8.dd\L	.	(8.gg^<\L	.	.	.	8.gg\	quod	.	.	.	.	.	.	.	[4G/	.	[4G/	.	.	.	.	.	.	.	.	.	.	.
.	.	.	.	.	16dd\Jk	.	16ff\Jk)	.	.	.	16ff\	sum	.	.	.	.	.	.	.	.	.	.	.	.	.	.	.	.	.	.	.	.	.
!	!	!	!	!	!	!	!LO:LB:g=original	!	!	!	!	!	!	!	!	!	!	!	!	!	!	!	!	!	!	!	!	!	!	!	!	!	!
=57	=57	=57	=57	=57	=57	=57	=57	=57	=57	=57	=57	=57	=57	=57	=57	=57	=57	=57	=57	=57	=57	=57	=57	=57	=57	=57	=57	=57	=57	=57	=57	=57	=57
4c\	.	4c\	2G/	2.ryy	8r	.	8r	.	2.ryy	2.ryy	8.ff\L	cau-	2.r	.	2.ryy	2.ryy	2.ryy	2.ryy	2.ryy	2.G/_	.	2.G/_	.	2.ryy	2.ryy	2.r	.	2.r	.	2.ryy	2.ryy	2.ryy	2.ryy
.	.	.	.	.	8cc\L	.	8ee-\L	.	.	.	.	.	.	.	.	.	.	.	.	.	.	.	.	.	.	.	.	.	.	.	.	.	.
.	.	.	.	.	.	.	.	.	.	.	16ee-\Jk	.	.	.	.	.	.	.	.	.	.	.	.	.	.	.	.	.	.	.	.	.	.
8C/	.	8C/	.	.	8cc\	.	8ee-\	.	.	.	8ee-\	-sa	.	.	.	.	.	.	.	.	.	.	.	.	.	.	.	.	.	.	.	.	.
8r	.	8r	.	.	8cc\J	.	8ee-\J	.	.	.	8r	.	.	.	.	.	.	.	.	.	.	.	.	.	.	.	.	.	.	.	.	.	.
4Bn^<\	.	4Bn\	4G/	.	8.g\L	.	8.dd\L	.	.	.	8.gg\L	tu-	.	.	.	.	.	.	.	.	.	.	.	.	.	.	.	.	.	.	.	.	.
.	.	.	.	.	16dd\Jk	.	16dd\Jk	.	.	.	16ff\Jk	-e	.	.	.	.	.	.	.	.	.	.	.	.	.	.	.	.	.	.	.	.	.
!	!	!LO:LB:g=original	!	!	!	!	!	!	!	!	!	!	!	!	!	!	!	!	!	!	!	!	!	!	!	!	!	!	!	!	!	!	!
=58	=58	=58	=58	=58	=58	=58	=58	=58	=58	=58	=58	=58	=58	=58	=58	=58	=58	=58	=58	=58	=58	=58	=58	=58	=58	=58	=58	=58	=58	=58	=58	=58	=58
4c\	.	4c\	2G/	2.ryy	8r	.	8r	.	2.ryy	2.ryy	8.ff\L	vi-	2.r	.	2.ryy	2.ryy	2.ryy	2.ryy	2.ryy	2G/]	.	2G/]	.	2.ryy	2.ryy	2.r	.	2.r	.	2.ryy	2.ryy	2.ryy	2.ryy
.	.	.	.	.	8cc\L	.	8ee-\L	.	.	.	.	.	.	.	.	.	.	.	.	.	.	.	.	.	.	.	.	.	.	.	.	.	.
.	.	.	.	.	.	.	.	.	.	.	16ee-\Jk	.	.	.	.	.	.	.	.	.	.	.	.	.	.	.	.	.	.	.	.	.	.
8C/	.	8C/	.	.	8cc\	.	8ee-\	.	.	.	8ee-\	-e	.	.	.	.	.	.	.	.	.	.	.	.	.	.	.	.	.	.	.	.	.
!	!	!	!	!	!	!	!	!	!	!	!LO:TX:t=P:problem=łamanie linii w takcie	!	!	!	!	!	!	!	!	!	!	!	!	!	!	!	!	!	!	!	!	!	!
8r	.	8r	.	.	8cc\J	.	8ee-\J	.	.	.	8r	.	.	.	.	.	.	.	.	.	.	.	.	.	.	.	.	.	.	.	.	.	.
!	!	!	!	!	!	!	!	!	!	!	!LO:LB:g=original	!	!	!	!	!	!	!	!	!	!	!	!	!	!	!	!	!	!	!	!	!	!
8E-^<\L	.	8E-\L	8e-\L	.	8g/L	.	8cc\L	.	.	.	8cc\L	ne-	.	.	.	.	.	.	.	4r	.	4r	.	.	.	.	.	.	.	.	.	.	.
.	.	.	.	.	.	.	16qqdd/LL	.	.	.	.	.	.	.	.	.	.	.	.	.	.	.	.	.	.	.	.	.	.	.	.	.	.
.	.	.	.	.	.	.	16qqcc/	.	.	.	.	.	.	.	.	.	.	.	.	.	.	.	.	.	.	.	.	.	.	.	.	.	.
.	.	.	.	.	.	.	16qqbn/	.	.	.	.	.	.	.	.	.	.	.	.	.	.	.	.	.	.	.	.	.	.	.	.	.	.
.	.	.	.	.	.	.	16qqcc/JJ	.	.	.	.	.	.	.	.	.	.	.	.	.	.	.	.	.	.	.	.	.	.	.	.	.	.
8C\J	.	8C\J	8c\J	.	8g/J	.	16dd\L	.	.	.	16dd\L	.	.	.	.	.	.	.	.	.	.	.	.	.	.	.	.	.	.	.	.	.	.
.	.	.	.	.	.	.	16ee-\JJ	.	.	.	16ee-\JJ	-me	.	.	.	.	.	.	.	.	.	.	.	.	.	.	.	.	.	.	.	.	.
!LO:LB:g=original	!	!	!	!	!	!	!	!	!	!	!	!	!	!	!	!	!	!	!	!	!	!	!	!	!	!	!	!	!	!	!	!	!
=59	=59	=59	=59	=59	=59	=59	=59	=59	=59	=59	=59	=59	=59	=59	=59	=59	=59	=59	=59	=59	=59	=59	=59	=59	=59	=59	=59	=59	=59	=59	=59	=59	=59
!	!	!	!	!	!	!	!	!	!	!	!	!	!	!	!	!	!	!	!	!LO:TX:a:t=1	!	!	!	!	!	!	!	!	!	!	!	!	!
8F\L	.	8F\L	8r	2.ryy	8r	.	8r	.	2.ryy	2.ryy	16.ee-\LL	per-	2.r	.	2.ryy	2.ryy	2.ryy	2.ryy	2.ryy	2.r	.	2.r	.	2.ryy	2.ryy	2.r	.	2.r	.	2.ryy	2.ryy	2.ryy	2.ryy
.	.	.	.	.	.	.	.	.	.	.	32dd\K	.	.	.	.	.	.	.	.	.	.	.	.	.	.	.	.	.	.	.	.	.	.
8F\J	.	8F\J	8a-\	.	8f/	.	8dd\	.	.	.	16.ff\	-das	.	.	.	.	.	.	.	.	.	.	.	.	.	.	.	.	.	.	.	.	.
.	.	.	.	.	.	.	.	.	.	.	32dd\JJk	.	.	.	.	.	.	.	.	.	.	.	.	.	.	.	.	.	.	.	.	.	.
4G\	.	4G\	8r	.	8r	.	8r	.	.	.	4cc\	il-	.	.	.	.	.	.	.	.	.	.	.	.	.	.	.	.	.	.	.	.	.
.	.	.	8g\	.	8e-/	.	8cc\	.	.	.	.	.	.	.	.	.	.	.	.	.	.	.	.	.	.	.	.	.	.	.	.	.	.
4GG/	.	4GG/	8r	.	8r	.	8r	.	.	.	4bn\	-la	.	.	.	.	.	.	.	.	.	.	.	.	.	.	.	.	.	.	.	.	.
.	.	.	8G/	.	8d/	.	8bn\	.	.	.	.	.	.	.	.	.	.	.	.	.	.	.	.	.	.	.	.	.	.	.	.	.	.
!	!	!	!	!	!LO:LB:g=original	!	!	!	!	!	!	!	!	!	!	!	!	!	!	!	!	!	!	!	!	!	!	!LO:LB:g=original	!	!	!	!	!
=60	=60	=60	=60	=60	=60	=60	=60	=60	=60	=60	=60	=60	=60	=60	=60	=60	=60	=60	=60	=60	=60	=60	=60	=60	=60	=60	=60	=60	=60	=60	=60	=60	=60
(8C\L	.	8C\L	8c\L	2.ryy	(4d/	.	4bn\	.	2.ryy	2.ryy	4bn\	Di-	2.r	.	2.ryy	2.ryy	2.ryy	2.ryy	2.ryy	8r	p	8r	p	2.ryy	2.ryy	8r	.	8r	.	2.ryy	2.ryy	2.ryy	2.ryy
8G\	>	8G\	8g\	.	.	.	.	.	.	.	.	.	.	.	.	.	.	.	.	4G/	>	4g\	>	.	.	4g/	.	4gg\	>	.	.	.	.
8E-\	.	8E-\	8e-\	.	16e-/)	.	16cc\	.	.	.	8cc\	-e	.	.	.	.	.	.	.	.	.	.	.	.	.	.	.	.	.	.	.	.	.
.	.	.	.	.	(16g/LL	.	16g/LL	.	.	.	.	.	.	.	.	.	.	.	.	.	.	.	.	.	.	.	.	.	.	.	.	.	.
8C\J	.	8C\J	8c\J	.	16f#X/	.	16f#X/	.	.	.	8r	.	.	.	.	.	.	.	.	8G/L	.	8g\L	.	.	.	8g/L	>	8gg\L	.	.	.	.	.
.	.	.	.	.	16g/JJ)	.	16g/JJ	.	.	.	.	.	.	.	.	.	.	.	.	.	.	.	.	.	.	.	.	.	.	.	.	.	.
8BBn/L)	]	8BBn/L	8Bn/L	.	(8.g/L	.	8.dd\L	.	.	.	4r	.	.	.	.	.	.	.	.	8G/	.	8g\	.	.	.	8g/	.	8gg\	.	.	.	.	.
8GG/J	.	8GG/J	8G/J	.	.	.	.	.	.	.	.	.	.	.	.	.	.	.	.	8G/J	]	8g\J	]	.	.	8g/J	]	8gg\J	]	.	.	.	.
.	.	.	.	.	16dd/Jk)	.	16ffn\Jk	.	.	.	.	.	.	.	.	.	.	.	.	.	.	.	.	.	.	.	.	.	.	.	.	.	.
!	!	!	!LO:LB:g=original	!	!	!	!LO:LB:g=original	!	!	!	!	!	!	!	!	!	!	!	!	!	!	!	!	!	!	!	!	!	!	!	!	!	!
=61	=61	=61	=61	=61	=61	=61	=61	=61	=61	=61	=61	=61	=61	=61	=61	=61	=61	=61	=61	=61	=61	=61	=61	=61	=61	=61	=61	=61	=61	=61	=61	=61	=61
*	*	*	*	*	*	*	*	*	*	*	*	*	*	*	*	*	*	*	*	*	*	*2\right	*	*	*	*	*	*2\right	*	*	*	*	*
(8C\L	.	8C\L	8c\L	2.ryy	8.dd\L	.	8.ff\L	.	2.ryy	2.ryy	4r	.	2.r	.	2.ryy	2.ryy	2.ryy	2.ryy	2.ryy	[2.G/	.	[2.g\	.	2.ryy	2.ryy	[2.g/	.	[2.gg\	.	2.ryy	2.ryy	2.ryy	2.ryy
8G\	>	8G\	8g\	.	.	.	.	.	.	.	.	.	.	.	.	.	.	.	.	.	.	.	.	.	.	.	.	.	.	.	.	.	.
.	.	.	.	.	16cc\Jk	.	16ee-\Jk	.	.	.	.	.	.	.	.	.	.	.	.	.	.	.	.	.	.	.	.	.	.	.	.	.	.
8E-\	.	8E-\	8e-\	.	8g/L	.	16ee-\LL	.	.	.	(8.cc\	ne-	.	.	.	.	.	.	.	.	.	.	.	.	.	.	.	.	.	.	.	.	.
.	.	.	.	.	.	.	16gg\	.	.	.	.	.	.	.	.	.	.	.	.	.	.	.	.	.	.	.	.	.	.	.	.	.	.
8C\J)	.	8C\J	8c\J	.	8g/J	.	16ee-\	.	.	.	.	.	.	.	.	.	.	.	.	.	.	.	.	.	.	.	.	.	.	.	.	.	.
.	.	.	.	.	.	.	16cc\JJ	.	.	.	16ee-\)	.	.	.	.	.	.	.	.	.	.	.	.	.	.	.	.	.	.	.	.	.	.
8BBn/L	]	8BBn/L	8Bn/L	.	8.g/L	.	8.dd\L	.	.	.	4gg\	-me	.	.	.	.	.	.	.	.	.	.	.	.	.	.	.	.	.	.	.	.	.
8GG/J	.	8GG/J	8G/J	.	.	.	.	.	.	.	.	.	.	.	.	.	.	.	.	.	.	.	.	.	.	.	.	.	.	.	.	.	.
.	.	.	.	.	16dd/Jk	.	16ff\Jk	.	.	.	.	.	.	.	.	.	.	.	.	.	.	.	.	.	.	.	.	.	.	.	.	.	.
=62	=62	=62	=62	=62	=62	=62	=62	=62	=62	=62	=62	=62	=62	=62	=62	=62	=62	=62	=62	=62	=62	=62	=62	=62	=62	=62	=62	=62	=62	=62	=62	=62	=62
8C\L	.	8C\L	8c\L	2.ryy	8r	.	8r	.	2.ryy	2.ryy	4gg\	per-	2.r	.	2.ryy	2.ryy	2.ryy	2.ryy	2.ryy	2G/]	.	2g\]	.	2.ryy	2.ryy	2g/]	.	2gg\]	.	2.ryy	2.ryy	2.ryy	2.ryy
8G\	.	8G\	8g\	.	8cc\L	.	8ee-\L	.	.	.	.	.	.	.	.	.	.	.	.	.	.	.	.	.	.	.	.	.	.	.	.	.	.
8E-\	.	8E-\	8e-\	.	8cc\	.	8ee-\	.	.	.	4gg\	-das	.	.	.	.	.	.	.	.	.	.	.	.	.	.	.	.	.	.	.	.	.
8C\J	f	8C\J	8c\J	.	8cc\J	.	8ee-\J	.	.	.	.	.	.	.	.	.	.	.	.	.	.	.	.	.	.	.	.	.	.	.	.	.	.
!	!	!LO:TX:t=P:problem=niewyraźne źródło	!	!	!	!	!	!	!	!	!	!	!	!	!	!	!	!	!	!	!	!	!	!	!	!	!	!	!	!	!	!	!
8E-\L	p	8BBn/L	8Bn/L	.	8g/L	.	8ccT\L	.	.	.	8gg\L	ne-	.	.	.	.	.	.	.	4r	.	4r	.	.	.	4r	.	4r	.	.	.	.	.
8C\J	.	8GG/J	8G/J	.	8g/J	.	16dd\L	.	.	.	16ff\L	.	.	.	.	.	.	.	.	.	.	.	.	.	.	.	.	.	.	.	.	.	.
.	.	.	.	.	.	.	16ee-\JJ	.	.	.	16ee-\JJ	-me	.	.	.	.	.	.	.	.	.	.	.	.	.	.	.	.	.	.	.	.	.
!LO:LB:g=original	!	!	!	!	!	!	!	!	!	!	!LO:LB:g=original	!	!	!	!	!	!	!	!	!	!	!	!	!	!	!	!	!	!	!	!	!	!
=63	=63	=63	=63	=63	=63	=63	=63	=63	=63	=63	=63	=63	=63	=63	=63	=63	=63	=63	=63	=63	=63	=63	=63	=63	=63	=63	=63	=63	=63	=63	=63	=63	=63
!	!	!	!	!	!	!	!	!	!	!	!	!	!	!	!	!	!	!	!	!LO:TX:a:t=1	!	!LO:TX:a:t=1	!	!	!	!LO:TX:a:t=1	!	!LO:TX:a:t=1	!	!	!	!	!
8F\L	.	8F\L	8r	2.ryy	8r	.	8r	.	2.ryy	2.ryy	16.ee-\LL	per-	2.r	.	2.ryy	2.ryy	2.ryy	2.ryy	2.ryy	2.r	.	2.r	.	2.ryy	2.ryy	2.r	.	2.r	.	2.ryy	2.ryy	2.ryy	2.ryy
.	.	.	.	.	.	.	.	.	.	.	32dd\JJk	.	.	.	.	.	.	.	.	.	.	.	.	.	.	.	.	.	.	.	.	.	.
8F\J	.	8F\J	8a-\	.	8f/	.	8dd\	.	.	.	16.ff\LL	-das	.	.	.	.	.	.	.	.	.	.	.	.	.	.	.	.	.	.	.	.	.
.	.	.	.	.	.	.	.	.	.	.	32dd\JJk	.	.	.	.	.	.	.	.	.	.	.	.	.	.	.	.	.	.	.	.	.	.
4G\	.	4G\	8r	.	8r	.	8r	.	.	.	4cc\	il-	.	.	.	.	.	.	.	.	.	.	.	.	.	.	.	.	.	.	.	.	.
.	.	.	8g\	.	8e-/	.	8cc\	.	.	.	.	.	.	.	.	.	.	.	.	.	.	.	.	.	.	.	.	.	.	.	.	.	.
4G\	.	4G\	8r	.	8r	.	8r	.	.	.	4bn\	-la	.	.	.	.	.	.	.	.	.	.	.	.	.	.	.	.	.	.	.	.	.
.	.	.	8f\	.	8d/	.	8bn\	.	.	.	.	.	.	.	.	.	.	.	.	.	.	.	.	.	.	.	.	.	.	.	.	.	.
!	!	!LO:LB:g=original	!	!	!	!	!	!	!	!	!	!	!	!	!	!	!	!	!	!LO:LB:g=original	!	!	!	!	!	!	!	!	!	!	!	!	!
=64	=64	=64	=64	=64	=64	=64	=64	=64	=64	=64	=64	=64	=64	=64	=64	=64	=64	=64	=64	=64	=64	=64	=64	=64	=64	=64	=64	=64	=64	=64	=64	=64	=64
!	!	!	!	!	!LO:TX:t=P:problem=łamanie linii w takcie	!	!	!	!	!	!	!	!	!	!	!	!	!	!	!	!	!	!	!	!	!	!	!	!	!	!	!	!
2A-X^<\	.	2A-X\	4d\	2.ryy	4f/	.	4bn\	.	2.ryy	2.ryy	4dd\	di-	2.r	.	2.ryy	2.ryy	2.ryy	2.ryy	2.ryy	4r	.	4r	.	2.ryy	2.ryy	4r	.	4r	.	2.ryy	2.ryy	2.ryy	2.ryy
!	!	!	!	!	!LO:LB:g=original	!	!	!	!	!	!	!	!	!	!	!	!	!	!	!	!	!	!	!	!	!	!	!	!	!	!	!	!
.	.	.	8c\L	.	8e-/L	.	8cc\L	.	.	.	8cc\	-e	.	.	.	.	.	.	.	4r	.	4r	.	.	.	4r	.	4r	f	.	.	.	.
!	!	!	!	!	!	!	!LO:TX:t=P:problem=łamanie linii w takcie	!	!	!	!	!	!	!	!	!	!	!	!	!	!	!	!	!	!	!	!	!	!	!	!	!	!
.	.	.	8c\J	.	8e-/J	.	8cc\J	.	.	.	8r	.	.	.	.	.	.	.	.	.	.	.	.	.	.	.	.	.	.	.	.	.	.
!	!	!	!	!	!	!	!LO:LB:g=original	!	!	!	!	!	!	!	!	!	!	!	!	!	!	!	!	!	!	!	!	!	!	!	!	!	!
8E-\L	f	8E-\L	8e-\L	.	8g/L	.	8ccT\L	.	.	.	8.gg\	ne-	.	.	.	.	.	.	.	4g\	.	4g\	.	.	.	4g/	f	8cc\L	.	.	.	.	.
16D\L	.	16D\L	16d\L	.	16f/L	.	16dd\L	.	.	.	.	.	.	.	.	.	.	.	.	.	.	.	.	.	.	.	.	16dd\L	.	.	.	.	.
16C\JJ	.	16C\JJ	16c\JJ	.	16e-/JJ	.	16ee-\JJ	.	.	.	16gg\	-me	.	.	.	.	.	.	.	.	.	.	.	.	.	.	.	16ee-\JJ	.	.	.	.	.
!	!	!	!	!	!	!	!	!	!	!	!	!	!	!	!	!	!	!	!	!	!	!LO:LB:g=original	!	!	!	!	!	!	!	!	!	!	!
=65	=65	=65	=65	=65	=65	=65	=65	=65	=65	=65	=65	=65	=65	=65	=65	=65	=65	=65	=65	=65	=65	=65	=65	=65	=65	=65	=65	=65	=65	=65	=65	=65	=65
!LO:TX:t=P:problem=mixedbeam	!	!LO:TX:t=P:problem=mixedbeam	!LO:TX:t=P:problem=mixedbeam	!	!	!	!	!	!	!	!	!	!	!	!	!	!	!	!	!	!	!	!	!	!	!	!	!	!	!	!	!	!
8F\L	.	8F\L	16f\LL	2.ryy	16a-/LL	.	8dd\L	.	2.ryy	2.ryy	16gg\	per-	2.r	.	2.ryy	2.ryy	2.ryy	2.ryy	2.ryy	4f\	>	4a-\	>	2.ryy	2.ryy	4a-\	>	4dd\	>	2.ryy	2.ryy	2.ryy	2.ryy
.	.	.	16F/	.	16a-/	.	.	.	.	.	16gg\	-das	.	.	.	.	.	.	.	.	.	.	.	.	.	.	.	.	.	.	.	.	.
8F\	>	8F\	16F/	.	16f/	.	16ff\L	.	.	.	16cc\	il-	.	.	.	.	.	.	.	.	.	.	.	.	.	.	.	.	.	.	.	.	.
.	.	.	16F/JJ	.	16f/JJ	.	16dd\JJ	.	.	.	16dd\	-la	.	.	.	.	.	.	.	.	.	.	.	.	.	.	.	.	.	.	.	.	.
!	!	!	!LO:LB:g=original	!	!	!	!	!	!	!	!	!	!	!	!	!	!	!	!	!	!	!	!	!	!	!	!	!	!	!	!	!	!
*	*	*	*tremolo	*	*tremolo	*	*	*	*	*	*	*	*	*	*	*	*	*	*	*	*	*	*	*	*	*	*	*	*	*	*	*	*
8G\	.	8G\	16G/LL	.	16e-/LL	.	16cc\LL	.	.	.	4ee-\	di-	.	.	.	.	.	.	.	4g\	.	4g\	.	.	.	4e-/	.	4cc\	.	.	.	.	.
.	.	.	16G/	.	16e-/	.	16cc\	.	.	.	.	.	.	.	.	.	.	.	.	.	.	.	.	.	.	.	.	.	.	.	.	.	.
8G\	.	8G\	16G/	.	16e-/	.	16cc\	.	.	.	.	.	.	.	.	.	.	.	.	.	.	.	.	.	.	.	.	.	.	.	.	.	.
.	.	.	16G/JJ	.	16e-/JJ	.	16cc\JJ	.	.	.	.	.	.	.	.	.	.	.	.	.	.	.	.	.	.	.	.	.	.	.	.	.	.
8GG/	]	8GG/	16G/LL	.	16d/LL	.	16bn\LL	.	.	.	4dd\	.	.	.	.	.	.	.	.	4G/	]	4g\	]	.	.	4d/	]	4bX\	]	.	.	.	.
.	.	.	16G/	.	16d/	.	16b\	.	.	.	.	.	.	.	.	.	.	.	.	.	.	.	.	.	.	.	.	.	.	.	.	.	.
8GG/J	.	8GG/J	16G/	.	16d/	.	16b\	.	.	.	.	.	.	.	.	.	.	.	.	.	.	.	.	.	.	.	.	.	.	.	.	.	.
.	.	.	16G/JJ	.	16d/JJ	.	16b\JJ	.	.	.	.	.	.	.	.	.	.	.	.	.	.	.	.	.	.	.	.	.	.	.	.	.	.
*	*	*	*Xtremolo	*	*Xtremolo	*	*	*	*	*	*	*	*	*	*	*	*	*	*	*	*	*	*	*	*	*	*	*	*	*	*	*	*
!	!	!	!	!	!	!	!	!	!	!	!	!	!	!	!	!	!	!	!	!	!	!	!	!	!	!LO:LB:g=original	!	!	!	!	!	!	!
=66	=66	=66	=66	=66	=66	=66	=66	=66	=66	=66	=66	=66	=66	=66	=66	=66	=66	=66	=66	=66	=66	=66	=66	=66	=66	=66	=66	=66	=66	=66	=66	=66	=66
!LO:TX:b:i:t=pizicato	!	!	!	!	!	!	!	!	!	!	!	!	!	!	!	!	!	!	!	!	!	!	!	!	!	!	!	!	!	!	!	!	!
8C/	.	8C/	4G/ 4C/	2.ryy	4e-/	.	4cc\	.	2.ryy	2.ryy	4cc\	-e	2.r	.	2.ryy	2.ryy	2.ryy	2.ryy	2.ryy	8G/	.	8g\	.	2.ryy	2.ryy	8e-/	.	8cc\	.	2.ryy	2.ryy	2.ryy	2.ryy
8r	.	8r	.	.	.	.	.	.	.	.	.	.	.	.	.	.	.	.	.	8r	.	8r	.	.	.	8r	.	8r	.	.	.	.	.
8C/	.	8C/	4r	.	4r	.	4r	.	.	.	4r	.	.	.	.	.	.	.	.	4r	.	4r	.	.	.	4r	.	4r	.	.	.	.	.
8r	.	8r	.	.	.	.	.	.	.	.	.	.	.	.	.	.	.	.	.	.	.	.	.	.	.	.	.	.	.	.	.	.	.
8C/	.	8C/	4r	.	4r	.	4r	.	.	.	4r	.	.	.	.	.	.	.	.	4r	.	4r	.	.	.	4r	.	4r	.	.	.	.	.
8r	.	8r	.	.	.	.	.	.	.	.	.	.	.	.	.	.	.	.	.	.	.	.	.	.	.	.	.	.	.	.	.	.	.
!	!	!	!	!	!	!	!	!	!	!	!	!	!	!	!	!	!	!	!	!	!	!	!	!	!	!	!	!LO:LB:g=original	!	!	!	!	!
=67	=67	=67	=67	=67	=67	=67	=67	=67	=67	=67	=67	=67	=67	=67	=67	=67	=67	=67	=67	=67	=67	=67	=67	=67	=67	=67	=67	=67	=67	=67	=67	=67	=67
!	!	!	!	!	!	!	!	!	!	!	!LO:TX:a:t=6.	!	!	!	!	!	!	!	!	!LO:TX:a:t=6.	!	!LO:TX:a:t=6.	!	!	!	!LO:TX:a:t=6.	!	!LO:TX:a:t=6	!	!	!	!	!
4G\	.	4G\	4r	2.ryy	4r	.	4r	.	2.ryy	2.ryy	0.r	.	2.r	.	2.ryy	2.ryy	2.ryy	2.ryy	2.ryy	0.r	.	0.r	.	2.ryy	2.ryy	0.r	.	0.r	.	2.ryy	2.ryy	2.ryy	2.ryy
16.r	.	16.r	16.r	.	16.r	.	16.r	.	.	.	.	.	.	.	.	.	.	.	.	.	.	.	.	.	.	.	.	.	.	.	.	.	.
!LO:TX:b:i:t=arco	!	!	!	!	!	!	!	!	!	!	!	!	!	!	!	!	!	!	!	!	!	!	!	!	!	!	!	!	!	!	!	!	!
32G\KLL	.	32G\KLL	32g\KLL	.	32g/KLL	.	32g/KLL	.	.	.	.	.	.	.	.	.	.	.	.	.	.	.	.	.	.	.	.	.	.	.	.	.	.
16.F#X\	.	16.F#X\	16.f#X\	.	16.f#X/	.	16.f#X/	.	.	.	.	.	.	.	.	.	.	.	.	.	.	.	.	.	.	.	.	.	.	.	.	.	.
32G\JJk	.	32G\JJk	32g\JJk	.	32g/JJk	.	32g/JJk	.	.	.	.	.	.	.	.	.	.	.	.	.	.	.	.	.	.	.	.	.	.	.	.	.	.
16.D\LL	.	16D/LL	16.d\LL	.	16.d/LL	.	16.d/LL	.	.	.	.	.	.	.	.	.	.	.	.	.	.	.	.	.	.	.	.	.	.	.	.	.	.
.	.	16G/	.	.	.	.	.	.	.	.	.	.	.	.	.	.	.	.	.	.	.	.	.	.	.	.	.	.	.	.	.	.	.
32G\K	.	.	32g\K	.	32g/K	.	32g/K	.	.	.	.	.	.	.	.	.	.	.	.	.	.	.	.	.	.	.	.	.	.	.	.	.	.
16.BBn\	.	16BBn/	16.Bn\	.	16.Bn/	.	16.Bn/	.	.	.	.	.	.	.	.	.	.	.	.	.	.	.	.	.	.	.	.	.	.	.	.	.	.
.	.	16D/JJ	.	.	.	.	.	.	.	.	.	.	.	.	.	.	.	.	.	.	.	.	.	.	.	.	.	.	.	.	.	.	.
32D\JJk	.	.	32d\JJk	.	32d/JJk	.	32d/JJk	.	.	.	.	.	.	.	.	.	.	.	.	.	.	.	.	.	.	.	.	.	.	.	.	.	.
!LO:LB:g=original	!	!	!	!	!	!	!	!	!	!	!	!	!	!	!	!	!	!	!	!	!	!	!	!	!	!	!	!	!	!	!	!	!
=68	=68	=68	=68	=68	=68	=68	=68	=68	=68	=68	=68	=68	=68	=68	=68	=68	=68	=68	=68	=68	=68	=68	=68	=68	=68	=68	=68	=68	=68	=68	=68	=68	=68
!LO:TX:b:i:t=pizic.	!	!	!	!	!	!	!	!	!	!	!	!	!	!	!	!	!	!	!	!	!	!	!	!	!	!	!	!	!	!	!	!	!
8GG/	.	8GG/	4G/	2.ryy	4G/	.	4G/	.	2.ryy	2.ryy	.	.	2.r	.	2.ryy	2.ryy	2.ryy	2.ryy	2.ryy	.	.	.	.	2.ryy	2.ryy	.	.	.	.	2.ryy	2.ryy	2.ryy	2.ryy
8r	.	8r	.	.	.	.	.	.	.	.	.	.	.	.	.	.	.	.	.	.	.	.	.	.	.	.	.	.	.	.	.	.	.
8G\	.	8G\	4r	.	4r	.	4r	.	.	.	.	.	.	.	.	.	.	.	.	.	.	.	.	.	.	.	.	.	.	.	.	.	.
8r	.	8r	.	.	.	.	.	.	.	.	.	.	.	.	.	.	.	.	.	.	.	.	.	.	.	.	.	.	.	.	.	.	.
8GG/	.	8GG/	4r	.	4r	.	4r	.	.	.	.	.	.	.	.	.	.	.	.	.	.	.	.	.	.	.	.	.	.	.	.	.	.
8r	.	8r	.	.	.	.	.	.	.	.	.	.	.	.	.	.	.	.	.	.	.	.	.	.	.	.	.	.	.	.	.	.	.
!	!	!	!	!	!LO:LB:g=original	!	!LO:LB:g=original	!	!	!	!	!	!	!	!	!	!	!	!	!	!	!	!	!	!	!	!	!	!	!	!	!	!
=69	=69	=69	=69	=69	=69	=69	=69	=69	=69	=69	=69	=69	=69	=69	=69	=69	=69	=69	=69	=69	=69	=69	=69	=69	=69	=69	=69	=69	=69	=69	=69	=69	=69
!	!	!LO:TX:t=P:problem=łamanie linii w takcie	!	!	!	!	!	!	!	!	!	!	!	!	!	!	!	!	!	!	!	!	!	!	!	!	!	!	!	!	!	!	!
4C/	.	4C/	4r	2.ryy	4r	.	4r	.	2.ryy	2.ryy	.	.	2.r	.	2.ryy	2.ryy	2.ryy	2.ryy	2.ryy	.	.	.	.	2.ryy	2.ryy	.	.	.	.	2.ryy	2.ryy	2.ryy	2.ryy
!	!	!LO:LB:g=original	!	!	!	!	!	!	!	!	!	!	!	!	!	!	!	!	!	!	!	!	!	!	!	!	!	!	!	!	!	!	!
16.r	.	16.r	16.r	.	16.r	.	16.r	.	.	.	.	.	.	.	.	.	.	.	.	.	.	.	.	.	.	.	.	.	.	.	.	.	.
!LO:TX:b:i:t=arco.	!	!	!	!	!	!	!	!	!	!	!	!	!	!	!	!	!	!	!	!	!	!	!	!	!	!	!	!	!	!	!	!	!
32c\KLL	.	32c\KLL	32c/KLL	.	32cc\KLL	.	32cc/KLL	.	.	.	.	.	.	.	.	.	.	.	.	.	.	.	.	.	.	.	.	.	.	.	.	.	.
16.Bn\	.	16.Bn\	16.Bn/	.	16.bn\	.	16.bn/	.	.	.	.	.	.	.	.	.	.	.	.	.	.	.	.	.	.	.	.	.	.	.	.	.	.
32c\JJk	.	32c\JJk	32c/JJk	.	32cc\JJk	.	32cc/JJk	.	.	.	.	.	.	.	.	.	.	.	.	.	.	.	.	.	.	.	.	.	.	.	.	.	.
16.G\LL	.	16.G\LL	16G/LL	.	16.g/LL	.	16.g/LL	.	.	.	.	.	.	.	.	.	.	.	.	.	.	.	.	.	.	.	.	.	.	.	.	.	.
.	.	.	16c/	.	.	.	.	.	.	.	.	.	.	.	.	.	.	.	.	.	.	.	.	.	.	.	.	.	.	.	.	.	.
32c\K	.	32c\K	.	.	32cc/K	.	32cc/K	.	.	.	.	.	.	.	.	.	.	.	.	.	.	.	.	.	.	.	.	.	.	.	.	.	.
16.E-\	.	16.E-\	16E-/	.	16.e-/	.	16.e-/	.	.	.	.	.	.	.	.	.	.	.	.	.	.	.	.	.	.	.	.	.	.	.	.	.	.
.	.	.	16G/JJ	.	.	.	.	.	.	.	.	.	.	.	.	.	.	.	.	.	.	.	.	.	.	.	.	.	.	.	.	.	.
32G\JJk	.	32G\JJk	.	.	32g/JJk	.	32g/JJk	.	.	.	.	.	.	.	.	.	.	.	.	.	.	.	.	.	.	.	.	.	.	.	.	.	.
!	!	!	!LO:LB:g=original	!	!	!	!	!	!	!	!	!	!	!	!	!	!	!	!	!	!	!	!	!	!	!	!	!	!	!	!	!	!
=70	=70	=70	=70	=70	=70	=70	=70	=70	=70	=70	=70	=70	=70	=70	=70	=70	=70	=70	=70	=70	=70	=70	=70	=70	=70	=70	=70	=70	=70	=70	=70	=70	=70
!LO:TX:b:i:t=pizicato.	!	!	!	!	!	!	!	!	!	!	!	!	!	!	!	!	!	!	!	!	!	!	!	!	!	!	!	!	!	!	!	!	!
8C/	.	8C/	4C/	2.ryy	4c/	.	4c/	.	2.ryy	2.ryy	.	.	2.r	.	2.ryy	2.ryy	2.ryy	2.ryy	2.ryy	.	.	.	.	2.ryy	2.ryy	.	.	.	.	2.ryy	2.ryy	2.ryy	2.ryy
8r	.	8r	.	.	.	.	.	.	.	.	.	.	.	.	.	.	.	.	.	.	.	.	.	.	.	.	.	.	.	.	.	.	.
8c\	.	8c\	4r	.	4r	.	4r	.	.	.	.	.	.	.	.	.	.	.	.	.	.	.	.	.	.	.	.	.	.	.	.	.	.
8r	.	8r	.	.	.	.	.	.	.	.	.	.	.	.	.	.	.	.	.	.	.	.	.	.	.	.	.	.	.	.	.	.	.
8A-\	.	8A-\	4r	.	4r	.	4r	.	.	.	.	.	.	.	.	.	.	.	.	.	.	.	.	.	.	.	.	.	.	.	.	.	.
8r	.	8r	.	.	.	.	.	.	.	.	.	.	.	.	.	.	.	.	.	.	.	.	.	.	.	.	.	.	.	.	.	.	.
=71	=71	=71	=71	=71	=71	=71	=71	=71	=71	=71	=71	=71	=71	=71	=71	=71	=71	=71	=71	=71	=71	=71	=71	=71	=71	=71	=71	=71	=71	=71	=71	=71	=71
8F\	.	8F\	8r	2.ryy	8r	.	8r	.	2.ryy	2.ryy	1.r	.	2.r	.	2.ryy	2.ryy	2.ryy	2.ryy	2.ryy	1.r	.	1.r	.	2.ryy	2.ryy	1.r	.	1.r	.	2.ryy	2.ryy	2.ryy	2.ryy
8r	.	8r	8F/	.	8A-/	.	8d/	.	.	.	.	.	.	.	.	.	.	.	.	.	.	.	.	.	.	.	.	.	.	.	.	.	.
8G\	.	8G\	8r	.	8r	.	8r	.	.	.	.	.	.	.	.	.	.	.	.	.	.	.	.	.	.	.	.	.	.	.	.	.	.
8r	.	8r	8E-/	.	8G/	.	8c/	.	.	.	.	.	.	.	.	.	.	.	.	.	.	.	.	.	.	.	.	.	.	.	.	.	.
8GG/	.	8GG/	8r	.	8r	.	8r	.	.	.	.	.	.	.	.	.	.	.	.	.	.	.	.	.	.	.	.	.	.	.	.	.	.
8r	.	8r	8D/	.	8G/	.	8Bn/	.	.	.	.	.	.	.	.	.	.	.	.	.	.	.	.	.	.	.	.	.	.	.	.	.	.
=72	=72	=72	=72	=72	=72	=72	=72	=72	=72	=72	=72	=72	=72	=72	=72	=72	=72	=72	=72	=72	=72	=72	=72	=72	=72	=72	=72	=72	=72	=72	=72	=72	=72
8C/	.	8C/	4D/	2.ryy	4G/	.	4Bn/	.	2.ryy	2.ryy	.	.	2.r	.	2.ryy	2.ryy	2.ryy	2.ryy	2.ryy	.	.	.	.	2.ryy	2.ryy	.	.	.	.	2.ryy	2.ryy	2.ryy	2.ryy
8r	.	8r	.	.	.	.	.	.	.	.	.	.	.	.	.	.	.	.	.	.	.	.	.	.	.	.	.	.	.	.	.	.	.
8C/	.	8C/	8E-/	.	8G/	.	8c/	.	.	.	.	.	.	.	.	.	.	.	.	.	.	.	.	.	.	.	.	.	.	.	.	.	.
8r	.	8r	8r	.	8r	.	8r	.	.	.	.	.	.	.	.	.	.	.	.	.	.	.	.	.	.	.	.	.	.	.	.	.	.
4r	.	4r	4r	.	4r	.	4r	.	.	.	.	.	.	.	.	.	.	.	.	.	.	.	.	.	.	.	.	.	.	.	.	.	.
==	==	==	==	==	==	==	==	==	==	==	==	==	==	==	==	==	==	==	==	==	==	==	==	==	==	==	==	==	==	==	==	==	==
*-	*-	*-	*-	*-	*-	*-	*-	*-	*-	*-	*-	*-	*-	*-	*-	*-	*-	*-	*-	*-	*-	*-	*-	*-	*-	*-	*-	*-	*-	*-	*-	*-	*-
!!!system-decoration: [(s1,s2,s3,s4,s5,s6,s7,s8)][(s9,s10,s11,s12,s13,s14,s15)][(s16)][(s17,s18,s19)][(s20,s21,s22,s23,s24,s25)]
!!!RDF**kern: > = above
!!!RDF**kern: < = below
!!!RDF**dynam: p = po
!!!RDF**dynam: fp = fpo
!!!ENC: Anastazja Marusiak
!!!END: 2020-08-15
!!!ENC: Leszek Kubiak
!!!END: 2022-02-05
!!!YEC: Copyright 2022 Narodowy Instytut Fryderyka Chopina (https://polishscores.org)
!!!YEM: Licence CC BY 4.0 (https://creativecommons.org/licenses/by/4.0)
